nikon/nlog/nlog_rec709.cube
# Development Color Space = REC709
# Output Gamma Curve = BT1886
# Output Tonemap = MEDIUM_CONTRAST
# Highlight Rolloff = Rolloff 2 - medium
# Resolution = 33 x 33 x 33
LUT_3D_SIZE 33
0 0 0
0 0 0
1.5259e-05 0 0
4.57771e-05 0 0
0.0375982 0.00256352 0.00256352
0.0766613 0.00350958 0.00357061
0.122774 0.00408942 0.00494392
0.180224 0.00666819 0.0106355
0.24828 0.0124514 0.0203098
0.323903 0.0191653 0.0307622
0.406821 0.0258335 0.0406195
0.494453 0.0324407 0.050248
0.576455 0.0390173 0.0603494
0.65037 0.0458228 0.0708171
0.714961 0.0530861 0.0838636
0.765454 0.0604868 0.097261
0.811231 0.0683757 0.113512
0.848997 0.078584 0.132372
0.881086 0.0896925 0.156664
0.909316 0.10338 0.185077
0.930663 0.119203 0.222049
0.948577 0.139986 0.264073
0.963623 0.162173 0.312001
0.974029 0.194385 0.365469
0.982498 0.231586 0.424414
0.98912 0.276143 0.487266
0.993347 0.336812 0.551949
0.996735 0.401038 0.609537
0.999268 0.46978 0.662348
0.999664 0.536858 0.708156
1 0.598978 0.747524
1 0.653468 0.783307
1 0.698512 0.813275
0 0 0
0 0 0
1.5259e-05 0 0
3.0518e-05 0 0
0.0373999 0.00257877 0.00257877
0.0765698 0.00350958 0.00357061
0.122744 0.00410468 0.00492866
0.180209 0.00672923 0.0106203
0.248295 0.0125277 0.0203098
0.323919 0.0192416 0.0307622
0.406821 0.0259098 0.0406043
0.494453 0.0325017 0.0502632
0.576455 0.0390784 0.0603494
0.650385 0.0458534 0.0708324
0.714961 0.0531319 0.0838788
0.765454 0.0605325 0.0972763
0.811231 0.068452 0.113542
0.849012 0.078645 0.132387
0.881102 0.0897536 0.156695
0.909331 0.103456 0.185077
0.930663 0.119265 0.22208
0.948577 0.140093 0.264088
0.963638 0.16228 0.312032
0.974029 0.194476 0.365499
0.982498 0.231708 0.42443
0.98912 0.276234 0.487297
0.993347 0.336919 0.551965
0.996735 0.401114 0.609552
0.999268 0.469856 0.662348
0.999664 0.536904 0.708156
1 0.599023 0.747524
1 0.653498 0.783307
1 0.698528 0.813275
0 0 0
0 0 0
0 0 0
3.0518e-05 0 0
0.0361334 0.00262455 0.00262455
0.0759289 0.00350958 0.00355535
0.12253 0.00427253 0.00483711
0.180133 0.00709544 0.010544
0.248341 0.0130465 0.0203098
0.323934 0.0196841 0.030808
0.406836 0.0264286 0.0405737
0.494514 0.0328832 0.0503243
0.576486 0.0394293 0.0603952
0.650462 0.0462348 0.0708324
0.715038 0.0534524 0.0840162
0.765499 0.0608225 0.0973831
0.811307 0.0689555 0.11368
0.849058 0.0790723 0.132479
0.881132 0.0901198 0.156893
0.909377 0.104036 0.185153
0.930709 0.119753 0.222263
0.948608 0.14078 0.264179
0.963653 0.163134 0.312169
0.974044 0.195132 0.365682
0.982498 0.232578 0.424567
0.98912 0.276936 0.487419
0.993347 0.337636 0.552026
0.996735 0.40174 0.609598
0.999268 0.470359 0.662379
0.999664 0.537255 0.708171
1 0.599298 0.747524
1 0.653681 0.783307
1 0.69865 0.813275
0 1.5259e-05 0
0 1.5259e-05 0
0 1.5259e-05 0
1.5259e-05 1.5259e-05 0
0.0341497 0.00274662 0.00274662
0.073991 0.00355535 0.00358587
0.12192 0.00480659 0.00489815
0.17998 0.00863661 0.0104067
0.248402 0.0148318 0.0204166
0.323919 0.0213169 0.0307469
0.406912 0.0277256 0.040528
0.494636 0.0339513 0.0504463
0.576623 0.0404822 0.0604868
0.650614 0.0473487 0.0707866
0.715206 0.0542916 0.0843824
0.765606 0.0616617 0.0976577
0.811429 0.0704509 0.114
0.84921 0.0802014 0.132815
0.8813 0.0918746 0.157183
0.909499 0.105562 0.185382
0.9308 0.121691 0.222629
0.948699 0.142596 0.264439
0.963684 0.165469 0.312444
0.974075 0.196902 0.366171
0.982513 0.234897 0.424949
0.98912 0.278813 0.487755
0.993347 0.33959 0.552224
0.996735 0.403418 0.609735
0.999252 0.471717 0.66244
0.999664 0.53817 0.708202
1 0.600046 0.747539
1 0.654169 0.783307
1 0.69897 0.813275
0.00233463 0.0270085 0.00233463
0.00233463 0.0269474 0.00233463
0.00234989 0.0265202 0.00234989
0.00277714 0.0262913 0.00239567
0.0223239 0.0236057 0.00299077
0.0702983 0.0129397 0.00350958
0.120745 0.010071 0.00448615
0.179904 0.0132753 0.0102998
0.2486 0.0184329 0.0205692
0.32398 0.0246128 0.0306096
0.406973 0.0307012 0.0402838
0.49482 0.0365606 0.0504463
0.576867 0.042771 0.0605325
0.650858 0.0492256 0.0714733
0.715465 0.0568399 0.0847181
0.765957 0.0647135 0.097734
0.811658 0.0730907 0.114794
0.849454 0.0831617 0.133257
0.881575 0.0951705 0.157839
0.909728 0.108309 0.185885
0.930999 0.125612 0.223316
0.948837 0.145907 0.26511
0.96376 0.169833 0.312993
0.974151 0.200488 0.366751
0.982528 0.239338 0.425605
0.989136 0.282353 0.488411
0.993347 0.343297 0.552605
0.996719 0.406638 0.61001
0.999252 0.474327 0.662577
0.999649 0.539925 0.708293
1 0.601511 0.74757
1 0.655131 0.783291
1 0.699596 0.813275
0.00350958 0.0643473 0.00350958
0.00350958 0.0643168 0.00350958
0.00350958 0.0641642 0.00350958
0.00350958 0.0631571 0.00350958
0.00802625 0.0610361 0.00350958
0.0615396 0.0559091 0.00352483
0.118196 0.0470588 0.00462348
0.179309 0.0310826 0.0102693
0.248524 0.028397 0.019913
0.324117 0.0320897 0.0298009
0.406729 0.0377966 0.039826
0.494682 0.0433814 0.0495155
0.577157 0.0491646 0.0595712
0.651072 0.055787 0.0715648
0.715923 0.0622873 0.0846876
0.766201 0.0701152 0.0982376
0.812009 0.0791333 0.115373
0.849897 0.0893416 0.133547
0.88191 0.100587 0.159075
0.910033 0.115221 0.186114
0.931289 0.131579 0.224674
0.949035 0.151949 0.266407
0.963882 0.176516 0.31397
0.974227 0.20676 0.367697
0.982544 0.246571 0.426246
0.989136 0.289937 0.489143
0.993332 0.349203 0.553262
0.996704 0.411765 0.610452
0.999237 0.478538 0.662821
0.999649 0.542763 0.708431
1 0.603586 0.747616
1 0.656687 0.783291
1 0.700633 0.813275
0.00350958 0.107851 0.00361639
0.00350958 0.107836 0.00361639
0.00350958 0.107759 0.00361639
0.00350958 0.107591 0.00360113
0.00360113 0.106966 0.00360113
0.0208896 0.105547 0.00360113
0.108736 0.100603 0.00386053
0.174746 0.0901503 0.00689708
0.245701 0.0772869 0.0160067
0.322087 0.0618296 0.0268864
0.404654 0.0616007 0.0368353
0.493217 0.0631113 0.0464942
0.57641 0.0651865 0.0580911
0.650919 0.0704509 0.0704051
0.716121 0.076112 0.0828565
0.766506 0.0823224 0.0983902
0.812406 0.0894636 0.115572
0.850248 0.100526 0.134829
0.882307 0.11191 0.160067
0.910399 0.125429 0.187762
0.931563 0.142245 0.225711
0.949218 0.163195 0.267857
0.96405 0.185779 0.315511
0.974258 0.21857 0.369039
0.982559 0.25658 0.427314
0.989075 0.302327 0.489937
0.993301 0.35935 0.553613
0.996658 0.419821 0.611002
0.999207 0.484565 0.663172
0.999649 0.546914 0.708568
1 0.606302 0.747692
1 0.658961 0.783291
1 0.702129 0.813275
0.00350958 0.160891 0.00387579
0.00350958 0.160891 0.00387579
0.00350958 0.160861 0.00387579
0.00350958 0.16083 0.00387579
0.00350958 0.160647 0.00387579
0.0068513 0.159716 0.00393683
0.0528115 0.156954 0.00399786
0.162081 0.151202 0.00521859
0.237705 0.142046 0.0101778
0.316106 0.132525 0.0198825
0.399191 0.121981 0.0305486
0.488975 0.111528 0.0427405
0.573754 0.106371 0.0548257
0.649668 0.104265 0.0672007
0.715404 0.105714 0.081651
0.766308 0.107301 0.0965896
0.812314 0.113207 0.113024
0.850507 0.119326 0.135988
0.882536 0.130694 0.160266
0.910521 0.144305 0.190066
0.931777 0.158984 0.226764
0.949371 0.178103 0.2692
0.96405 0.204196 0.316503
0.974289 0.234028 0.370901
0.982559 0.272267 0.428687
0.989013 0.318212 0.491112
0.993225 0.373114 0.554147
0.996567 0.43212 0.611399
0.999146 0.494377 0.66334
0.999649 0.552865 0.70869
1 0.609964 0.747845
1 0.662043 0.783291
1 0.704189 0.813291
0.00350958 0.222843 0.00433356
0.00350958 0.222843 0.00433356
0.00350958 0.222843 0.00433356
0.00350958 0.222873 0.0043183
0.00350958 0.222843 0.00430304
0.00373846 0.222126 0.0043183
0.0285801 0.22002 0.00433356
0.114488 0.215854 0.00474556
0.22121 0.208988 0.00779736
0.303944 0.199908 0.0140383
0.388663 0.191592 0.0251926
0.480369 0.183398 0.0366979
0.567773 0.175326 0.0490425
0.646311 0.167575 0.0636149
0.713008 0.160113 0.0787518
0.764813 0.15642 0.0940719
0.811185 0.157794 0.112093
0.85008 0.156939 0.134188
0.882216 0.163485 0.158175
0.910491 0.171023 0.192325
0.93164 0.188449 0.226917
0.949248 0.205921 0.270176
0.963989 0.227161 0.317876
0.974166 0.258045 0.372
0.982422 0.296208 0.429862
0.988952 0.337209 0.492699
0.993118 0.390433 0.554772
0.996475 0.447227 0.612009
0.999054 0.507378 0.663478
0.999573 0.563928 0.708537
1 0.616083 0.747906
1 0.66598 0.783322
1 0.706828 0.813321
0.00350958 0.291051 0.00585946
0.00350958 0.291051 0.00585946
0.00350958 0.291051 0.00585946
0.00350958 0.291035 0.00585946
0.00350958 0.29102 0.00587472
0.00361639 0.290501 0.00579843
0.00529488 0.288502 0.00590524
0.067689 0.284901 0.00598154
0.179934 0.279484 0.00601205
0.284062 0.271931 0.00830091
0.372854 0.262242 0.0181125
0.466377 0.253407 0.0320897
0.557321 0.245289 0.0455787
0.639048 0.237736 0.06009
0.708217 0.230823 0.0737774
0.760922 0.224811 0.0914168
0.808591 0.219501 0.111376
0.848219 0.216907 0.131563
0.881056 0.216648 0.159289
0.909483 0.22208 0.190661
0.931136 0.229023 0.227329
0.948852 0.243458 0.271427
0.963607 0.264881 0.317937
0.973953 0.290547 0.373373
0.982193 0.324956 0.431296
0.988678 0.364492 0.493278
0.992966 0.410971 0.555428
0.996353 0.464134 0.612604
0.998947 0.52221 0.663584
0.999512 0.57641 0.708461
1 0.625299 0.74786
1 0.672267 0.783215
1 0.710353 0.813336
0.00350958 0.364889 0.00880446
0.00350958 0.364874 0.00880446
0.00350958 0.364874 0.00883497
0.00350958 0.364858 0.00892653
0.00354009 0.364691 0.00898756
0.00364691 0.364263 0.00918593
0.00407416 0.362585 0.00933852
0.0151369 0.35903 0.00996414
0.121813 0.353857 0.0106355
0.244633 0.34725 0.0113222
0.349859 0.338857 0.0149844
0.445624 0.328618 0.0243381
0.542397 0.319036 0.0394293
0.627329 0.309728 0.056611
0.700542 0.30106 0.0748608
0.754345 0.294377 0.0904402
0.80412 0.288579 0.108553
0.844724 0.284153 0.131685
0.878645 0.281224 0.159319
0.907637 0.281636 0.188617
0.92987 0.285634 0.228687
0.947814 0.295567 0.272251
0.962966 0.30901 0.320241
0.973373 0.332586 0.372778
0.981781 0.360296 0.431678
0.988342 0.395315 0.494224
0.992676 0.438804 0.555184
0.996139 0.485817 0.613001
0.998825 0.538445 0.663676
0.999527 0.588052 0.708278
1 0.635904 0.74786
1 0.679774 0.783093
1 0.716762 0.813092
0.00350958 0.443336 0.0140536
0.00350958 0.443336 0.0140536
0.00350958 0.443336 0.0140688
0.00352483 0.443275 0.0140993
0.00360113 0.443076 0.0140993
0.0037232 0.442618 0.0140383
0.00399786 0.441657 0.0137942
0.00892653 0.438163 0.0142672
0.0461891 0.433097 0.0159152
0.188128 0.426566 0.0179904
0.310918 0.418906 0.0204929
0.418662 0.409689 0.0269474
0.522667 0.39791 0.0383001
0.610742 0.387869 0.0533761
0.687831 0.378347 0.0699168
0.7449 0.369299 0.0893873
0.796185 0.361135 0.110475
0.839704 0.353643 0.13373
0.874327 0.34873 0.158602
0.904967 0.345708 0.191012
0.927581 0.347341 0.229236
0.94641 0.351827 0.272847
0.961593 0.362722 0.32105
0.97258 0.378103 0.374105
0.981094 0.402045 0.431617
0.987869 0.432029 0.4934
0.99234 0.469978 0.555444
0.995834 0.513924 0.612726
0.998627 0.558663 0.663539
0.999527 0.60087 0.708171
1 0.646662 0.747677
1 0.68806 0.782925
1 0.724178 0.812833
0.00355535 0.519142 0.0242161
0.00355535 0.519142 0.0242161
0.00357061 0.519097 0.0242161
0.00360113 0.518959 0.0242618
0.00366217 0.518746 0.0244755
0.00375372 0.518181 0.0244297
0.00408942 0.51722 0.0246738
0.00579843 0.514641 0.0249027
0.0304723 0.510018 0.0265354
0.119631 0.504341 0.0281987
0.261326 0.497566 0.0301671
0.379538 0.489494 0.0327306
0.492958 0.479988 0.0421149
0.5897 0.468559 0.05626
0.669245 0.458274 0.0739147
0.732204 0.448188 0.0905013
0.785702 0.438712 0.111696
0.83183 0.429862 0.132479
0.868574 0.421561 0.162799
0.900038 0.415854 0.195804
0.924575 0.41239 0.230716
0.943786 0.41326 0.273854
0.960021 0.418189 0.322576
0.971176 0.431983 0.374807
0.980194 0.449424 0.432578
0.987182 0.474937 0.492042
0.991836 0.506569 0.55317
0.99556 0.540581 0.612253
0.998367 0.581552 0.663417
0.999359 0.62031 0.707469
1 0.656504 0.747784
1 0.696742 0.78262
1 0.730678 0.812558
0.00366217 0.589014 0.0366217
0.00366217 0.588998 0.0366369
0.00366217 0.588983 0.0367132
0.00367742 0.588891 0.0368811
0.0037232 0.588571 0.0370947
0.00381476 0.588144 0.0376745
0.00428778 0.587152 0.0380255
0.00637827 0.585702 0.0384985
0.0144808 0.582055 0.0406958
0.0881208 0.576959 0.044419
0.201602 0.570947 0.0489815
0.332448 0.564431 0.0535134
0.452873 0.556497 0.0603799
0.558343 0.546914 0.0682689
0.64715 0.535836 0.079942
0.712947 0.525277 0.0950484
0.773526 0.515145 0.116075
0.821424 0.50428 0.142367
0.861097 0.495171 0.168505
0.894408 0.487251 0.198596
0.920195 0.482307 0.235599
0.94081 0.480156 0.277378
0.957565 0.482216 0.323201
0.969604 0.488121 0.376699
0.978851 0.502022 0.43331
0.986328 0.518883 0.49337
0.991272 0.543099 0.552697
0.995132 0.571939 0.609934
0.998123 0.604898 0.663035
0.999313 0.639155 0.707103
1 0.672206 0.747387
1 0.706355 0.782361
1 0.737499 0.812222
0.00375372 0.645396 0.0511482
0.00375372 0.645396 0.0511635
0.00376898 0.645365 0.051194
0.0037995 0.645274 0.0512856
0.00384527 0.645075 0.0514382
0.00401312 0.644648 0.0516823
0.00433356 0.643977 0.0518196
0.00593576 0.642771 0.0521401
0.0134737 0.640406 0.0529946
0.0430762 0.636622 0.0561685
0.154788 0.63183 0.0596933
0.280476 0.626093 0.0672007
0.402609 0.620203 0.0766918
0.519249 0.613565 0.0888685
0.616312 0.604944 0.101366
0.691279 0.595728 0.115908
0.753887 0.585779 0.133227
0.810407 0.576318 0.151385
0.851072 0.566903 0.175265
0.887404 0.558282 0.206012
0.9149 0.550332 0.242756
0.936767 0.545007 0.283268
0.954833 0.542443 0.327184
0.967514 0.54461 0.37818
0.977523 0.55021 0.434089
0.985229 0.564034 0.494163
0.990494 0.581811 0.55491
0.994629 0.605203 0.60827
0.997757 0.630198 0.661631
0.999313 0.657145 0.706523
1 0.689006 0.747051
1 0.7187 0.781933
1 0.745022 0.811917
0.00389105 0.693797 0.0718853
0.00389105 0.693797 0.0719005
0.00390631 0.693767 0.0719158
0.00392157 0.69369 0.0721599
0.00402838 0.693523 0.0724041
0.00422675 0.693126 0.0729534
0.00460822 0.692546 0.0738079
0.00610361 0.691524 0.0747234
0.0105898 0.690227 0.0759747
0.0295567 0.686946 0.0796979
0.105241 0.682979 0.0861372
0.231891 0.678676 0.0927901
0.352987 0.673121 0.101183
0.474067 0.66775 0.111437
0.581048 0.661784 0.123033
0.66424 0.654047 0.133364
0.734386 0.645167 0.14963
0.792905 0.63537 0.1691
0.841291 0.626703 0.193378
0.87863 0.617472 0.22179
0.909148 0.609308 0.252567
0.932219 0.602853 0.291432
0.951278 0.598932 0.33434
0.965179 0.59852 0.381598
0.975601 0.602304 0.436255
0.984039 0.60737 0.496101
0.989548 0.619699 0.555978
0.994018 0.635325 0.609949
0.997345 0.656626 0.660487
0.999069 0.680415 0.704509
1 0.703777 0.746319
1 0.731685 0.781643
1 0.756741 0.811215
0.00411994 0.737987 0.099382
0.00411994 0.737972 0.0993668
0.0041352 0.737942 0.0993362
0.00419623 0.737881 0.0992752
0.00428778 0.737743 0.0991684
0.00445563 0.73753 0.0990616
0.00517281 0.737011 0.0985885
0.00604257 0.736385 0.0984817
0.0121614 0.73518 0.0990616
0.0285954 0.733379 0.102159
0.0670787 0.730297 0.10901
0.175082 0.726558 0.117189
0.305119 0.722545 0.126345
0.426062 0.717754 0.137179
0.535561 0.712856 0.149691
0.630167 0.707668 0.16405
0.707424 0.700496 0.178103
0.774151 0.691783 0.19675
0.823926 0.682933 0.215869
0.868864 0.674342 0.240131
0.900771 0.665965 0.269902
0.926528 0.658595 0.302754
0.947021 0.652125 0.343618
0.961929 0.648768 0.389227
0.973556 0.648341 0.440742
0.9823 0.651453 0.498512
0.988525 0.657816 0.556771
0.993133 0.671077 0.61001
0.996811 0.685161 0.661036
0.998886 0.702876 0.703288
0.999893 0.722789 0.744518
1 0.745678 0.781018
1 0.7682 0.810803
0.00444038 0.774807 0.143832
0.00445563 0.774807 0.143832
0.00447089 0.774777 0.143847
0.00450141 0.774716 0.143908
0.00471504 0.774594 0.143801
0.00503548 0.774395 0.143679
0.0055848 0.773999 0.143816
0.00746166 0.773419 0.143603
0.0114748 0.77258 0.143618
0.0229648 0.771435 0.143572
0.0519265 0.76907 0.147707
0.120974 0.766384 0.156191
0.246525 0.762768 0.164675
0.373968 0.759182 0.174929
0.488045 0.755138 0.18613
0.592172 0.750851 0.199023
0.676295 0.746349 0.214908
0.748898 0.739574 0.229221
0.806043 0.732357 0.244999
0.852354 0.724239 0.264881
0.891722 0.716793 0.290379
0.918563 0.709834 0.321248
0.941588 0.703426 0.356039
0.957885 0.698909 0.401099
0.970367 0.696132 0.449989
0.980392 0.695094 0.50219
0.986969 0.698207 0.558099
0.992233 0.703105 0.612741
0.996063 0.714687 0.661006
0.99852 0.727535 0.704631
0.999725 0.745007 0.742565
1 0.761837 0.779889
1 0.779812 0.810208
0.00509651 0.80856 0.190585
0.00509651 0.808545 0.190585
0.00514229 0.80853 0.19057
0.00523384 0.808469 0.19057
0.00540169 0.808347 0.190585
0.00567636 0.808164 0.190661
0.00668345 0.807919 0.190906
0.0087892 0.807385 0.190814
0.0124056 0.806775 0.191089
0.0235752 0.805798 0.191211
0.041062 0.80473 0.191867
0.102739 0.802274 0.198932
0.194553 0.799741 0.207156
0.319661 0.796536 0.216098
0.437827 0.793454 0.22591
0.546151 0.789792 0.237003
0.640528 0.786053 0.250095
0.720226 0.781628 0.266285
0.782483 0.775616 0.280934
0.835447 0.768673 0.297215
0.876722 0.761074 0.317968
0.91017 0.754482 0.345006
0.934432 0.747845 0.377615
0.953185 0.742077 0.414923
0.966827 0.737728 0.461204
0.9776 0.735821 0.510704
0.985306 0.736355 0.561456
0.990784 0.740139 0.614084
0.995239 0.745205 0.662013
0.997833 0.754345 0.705501
0.999557 0.765164 0.743511
1 0.779843 0.778897
1 0.795224 0.808713
0.00585946 0.838148 0.243839
0.00585946 0.838132 0.243839
0.00593576 0.838117 0.243839
0.00616464 0.838071 0.243824
0.0065919 0.837964 0.243839
0.00724804 0.837812 0.2439
0.00816358 0.837583 0.244053
0.0102998 0.837232 0.244205
0.0156252 0.836698 0.244388
0.0222934 0.836057 0.244831
0.0437629 0.835111 0.245289
0.072282 0.833906 0.247333
0.169543 0.831815 0.254124
0.271489 0.829496 0.26186
0.386587 0.826947 0.270283
0.496345 0.824262 0.279728
0.595865 0.821195 0.291142
0.686549 0.817777 0.304723
0.755367 0.814069 0.321492
0.812512 0.808789 0.336599
0.860807 0.802335 0.353613
0.895598 0.795682 0.375082
0.926314 0.789227 0.402869
0.946563 0.783352 0.437491
0.962356 0.778317 0.476356
0.97438 0.77409 0.523659
0.982788 0.772168 0.572351
0.98938 0.772366 0.616861
0.994034 0.775357 0.664454
0.997162 0.77995 0.706401
0.998932 0.789471 0.743496
0.999985 0.799329 0.778958
1 0.810925 0.80766
0.00782788 0.862577 0.299687
0.00784314 0.862577 0.299687
0.00791943 0.862562 0.299687
0.00810254 0.862516 0.299687
0.0084535 0.862425 0.299702
0.00900282 0.862287 0.299748
0.0107729 0.862104 0.299825
0.0133516 0.86186 0.299962
0.0178378 0.861402 0.300069
0.0263523 0.860883 0.300374
0.0433356 0.859266 0.306416
0.0719921 0.858625 0.305745
0.125795 0.858061 0.304753
0.226719 0.856199 0.31136
0.338003 0.854261 0.318761
0.446754 0.851957 0.326894
0.557214 0.849515 0.336614
0.649271 0.846571 0.348318
0.728969 0.843381 0.36228
0.789578 0.839963 0.379522
0.841611 0.834928 0.395514
0.881651 0.82977 0.413779
0.913497 0.823835 0.436683
0.93962 0.818509 0.466407
0.95642 0.81384 0.501686
0.970291 0.809537 0.540185
0.979904 0.80679 0.582208
0.98706 0.805768 0.624262
0.992706 0.805295 0.668162
0.996063 0.807874 0.70753
0.998642 0.811292 0.745495
0.999954 0.819226 0.778943
0.999985 0.827451 0.80824
0.0106813 0.884581 0.358312
0.0107118 0.884581 0.358312
0.0108339 0.884581 0.358328
0.0112306 0.884535 0.358312
0.0119783 0.884459 0.358312
0.0131685 0.884337 0.358312
0.014847 0.884184 0.358358
0.0170138 0.88397 0.358511
0.0224155 0.88368 0.358633
0.0310063 0.883223 0.358801
0.041825 0.882719 0.359213
0.0707866 0.882048 0.359701
0.10634 0.881239 0.360525
0.18674 0.880079 0.36437
0.29218 0.878462 0.370748
0.400031 0.87686 0.377981
0.509972 0.874723 0.386648
0.612329 0.872557 0.397116
0.696361 0.86981 0.409583
0.764492 0.867063 0.424613
0.820645 0.863828 0.442924
0.863554 0.859571 0.459663
0.900542 0.854612 0.478157
0.928176 0.84918 0.501167
0.950042 0.844633 0.529625
0.965118 0.840238 0.562585
0.97644 0.836515 0.597528
0.984573 0.833661 0.638071
0.990784 0.832685 0.674495
0.994949 0.833341 0.710506
0.997665 0.836088 0.747265
0.999893 0.839887 0.779644
0.999954 0.845731 0.808804
0.0152438 0.903395 0.421698
0.015259 0.903395 0.421698
0.0153506 0.90338 0.421698
0.0156252 0.903365 0.421714
0.0162356 0.903304 0.421698
0.0176699 0.903212 0.421683
0.0202335 0.903075 0.421637
0.0235752 0.902907 0.421637
0.0276951 0.902693 0.421729
0.0354162 0.902373 0.421805
0.0502632 0.901946 0.421897
0.0663767 0.901518 0.422232
0.111116 0.900862 0.422644
0.170657 0.900191 0.423377
0.251255 0.899107 0.427405
0.355901 0.89781 0.433661
0.466087 0.896315 0.440894
0.565927 0.894514 0.449897
0.665309 0.89247 0.460533
0.734127 0.890257 0.473091
0.797742 0.88777 0.487556
0.844434 0.885176 0.505638
0.883604 0.881559 0.521599
0.916259 0.877333 0.539071
0.939208 0.872801 0.560937
0.959106 0.868406 0.589548
0.971664 0.86453 0.620111
0.981384 0.86125 0.649714
0.988556 0.858518 0.684733
0.993179 0.857496 0.718547
0.996826 0.857755 0.749615
0.999146 0.859876 0.781781
0.999924 0.86273 0.809873
0.0222019 0.918929 0.486915
0.0222171 0.918929 0.486915
0.0223545 0.918914 0.486915
0.0227207 0.918898 0.486915
0.0235294 0.918868 0.486915
0.0250095 0.918791 0.48687
0.0271305 0.918685 0.486839
0.0299535 0.918532 0.486824
0.0358434 0.918364 0.486946
0.0431678 0.918166 0.487098
0.0557565 0.9178 0.487114
0.0747387 0.917418 0.487373
0.101015 0.917052 0.487892
0.155261 0.916426 0.488319
0.231586 0.915862 0.489296
0.321859 0.914931 0.493446
0.426139 0.913695 0.499779
0.532479 0.912413 0.507088
0.627283 0.910704 0.515908
0.708858 0.908965 0.526146
0.772778 0.906828 0.538735
0.826642 0.904585 0.55317
0.867781 0.902174 0.57116
0.902724 0.89868 0.586877
0.929015 0.895277 0.601267
0.949783 0.891295 0.619272
0.96669 0.88777 0.643137
0.977218 0.884703 0.669795
0.985687 0.88191 0.698634
0.991196 0.880323 0.726879
0.995239 0.879927 0.755047
0.998383 0.879713 0.784894
0.999512 0.881254 0.811048
0.0307317 0.932692 0.554528
0.0307622 0.932692 0.554528
0.0309453 0.932692 0.554528
0.0314641 0.932677 0.554528
0.0324559 0.932662 0.554543
0.0344549 0.932601 0.554543
0.0375372 0.932509 0.554543
0.0416419 0.932387 0.554574
0.0467842 0.93225 0.554604
0.0529488 0.932067 0.554604
0.0657206 0.931868 0.554574
0.0870069 0.931548 0.554543
0.110033 0.931197 0.55465
0.165454 0.930053 0.562997
0.237537 0.929625 0.562356
0.311681 0.929213 0.561868
0.394232 0.929015 0.55938
0.49723 0.927886 0.565042
0.595102 0.926741 0.571496
0.676814 0.925231 0.579217
0.748989 0.923674 0.588006
0.805325 0.921736 0.598932
0.851225 0.919799 0.611154
0.888823 0.917556 0.626749
0.916442 0.914748 0.640009
0.940566 0.911452 0.654627
0.958526 0.907835 0.672755
0.972747 0.904768 0.692714
0.982177 0.901884 0.714961
0.988815 0.899596 0.738689
0.993561 0.897795 0.765682
0.997116 0.897154 0.790082
0.99942 0.89752 0.813825
0.043534 0.94403 0.611902
0.0435645 0.94403 0.611902
0.0437171 0.94403 0.611887
0.0441444 0.94403 0.611887
0.0449531 0.943999 0.611872
0.0463264 0.943969 0.611841
0.0488594 0.943908 0.61178
0.0537118 0.943816 0.611765
0.0609751 0.943694 0.611811
0.0697795 0.943557 0.611902
0.0800336 0.943404 0.612039
0.0946365 0.943191 0.611978
0.128161 0.942916 0.612161
0.166491 0.942626 0.612528
0.227039 0.941482 0.621302
0.301839 0.941115 0.620935
0.387442 0.940764 0.620798
0.469688 0.940642 0.617868
0.5608 0.939696 0.623178
0.654459 0.938628 0.629496
0.721172 0.937346 0.636912
0.786954 0.935897 0.645579
0.832242 0.93431 0.65568
0.87422 0.932586 0.665904
0.904005 0.930861 0.678553
0.929335 0.92845 0.689464
0.950378 0.925689 0.701183
0.965255 0.92282 0.715724
0.978058 0.919921 0.735042
0.98555 0.917494 0.755596
0.991379 0.91545 0.775128
0.995621 0.913741 0.797909
0.998276 0.913069 0.819883
0.0607767 0.95349 0.666194
0.0608072 0.95349 0.666194
0.0610056 0.95349 0.666194
0.0615702 0.953475 0.666178
0.0626535 0.95346 0.666178
0.0644236 0.953445 0.666148
0.0675212 0.953399 0.666117
0.0722667 0.953323 0.666056
0.0783246 0.953231 0.665995
0.0857252 0.953109 0.665949
0.0995499 0.952987 0.665995
0.116396 0.95285 0.666056
0.142519 0.952651 0.665995
0.176303 0.952392 0.66598
0.228046 0.952148 0.666209
0.288243 0.951888 0.666438
0.368368 0.951476 0.666651
0.453422 0.951049 0.667308
0.542473 0.950408 0.670253
0.628305 0.949493 0.674815
0.702358 0.948592 0.679973
0.764691 0.947387 0.68629
0.816815 0.946181 0.693401
0.858503 0.944701 0.702266
0.892546 0.943206 0.712169
0.919005 0.941573 0.724544
0.941405 0.939269 0.735348
0.958419 0.937026 0.745083
