nikon/nlog/nlog_rec709.cube
# Development Color Space = REC709
# Output Gamma Curve = BT1886
# Output Tonemap = MEDIUM_CONTRAST
# Highlight Rolloff = Rolloff 2 - medium
# Resolution = 33 x 33 x 33
LUT_3D_SIZE 9
0 0 0
0.0375982 0.00256352 0.00256352
0.24828 0.0124514 0.0203098
0.576455 0.0390173 0.0603494
0.811231 0.0683757 0.113512
0.930663 0.119203 0.222049
0.982498 0.231586 0.424414
0.999268 0.46978 0.662348
1 0.698512 0.813275
0.00233463 0.0270085 0.00233463
0.0223239 0.0236057 0.00299077
0.2486 0.0184329 0.0205692
0.576867 0.042771 0.0605325
0.811658 0.0730907 0.114794
0.930999 0.125612 0.223316
0.982528 0.239338 0.425605
0.999252 0.474327 0.662577
1 0.699596 0.813275
0.00350958 0.222843 0.00433356
0.00350958 0.222843 0.00430304
0.22121 0.208988 0.00779736
0.567773 0.175326 0.0490425
0.811185 0.157794 0.112093
0.93164 0.188449 0.226917
0.982422 0.296208 0.429862
0.999054 0.507378 0.663478
1 0.706828 0.813321
0.00355535 0.519142 0.0242161
0.00366217 0.518746 0.0244755
0.0304723 0.510018 0.0265354
0.492958 0.479988 0.0421149
0.785702 0.438712 0.111696
0.924575 0.41239 0.230716
0.980194 0.449424 0.432578
0.998367 0.581552 0.663417
1 0.730678 0.812558
0.00411994 0.737987 0.099382
0.00428778 0.737743 0.0991684
0.0121614 0.73518 0.0990616
0.305119 0.722545 0.126345
0.707424 0.700496 0.178103
0.900771 0.665965 0.269902
0.973556 0.648341 0.440742
0.996811 0.685161 0.661036
1 0.7682 0.810803
0.00782788 0.862577 0.299687
0.0084535 0.862425 0.299702
0.0178378 0.861402 0.300069
0.125795 0.858061 0.304753
0.557214 0.849515 0.336614
0.841611 0.834928 0.395514
0.95642 0.81384 0.501686
0.992706 0.805295 0.668162
0.999985 0.827451 0.80824
0.0307317 0.932692 0.554528
0.0324559 0.932662 0.554543
0.0467842 0.93225 0.554604
0.110033 0.931197 0.55465
0.394232 0.929015 0.55938
0.748989 0.923674 0.588006
0.916442 0.914748 0.640009
0.982177 0.901884 0.714961
0.99942 0.89752 0.813825
0.114397 0.96875 0.754223
0.116457 0.968734 0.754208
0.132738 0.968612 0.754101
0.209659 0.968277 0.754177
0.390555 0.967636 0.754467
0.672084 0.966201 0.757946
0.86775 0.962951 0.776318
0.958114 0.958038 0.805524
0.993042 0.951263 0.847272
0.398764 0.986374 0.872663
0.401556 0.986374 0.872648
0.420706 0.986343 0.872618
0.474968 0.986221 0.872526
0.564782 0.986023 0.87245
0.696788 0.98558 0.872404
0.833509 0.98468 0.874037
0.932891 0.982712 0.883558
0.980041 0.979812 0.90045
0.0019379 0.0019379 0.0194553
0.037705 0.00292973 0.0218509
0.249744 0.0124361 0.0298772
0.577127 0.0387884 0.0676738
0.811399 0.0681773 0.123659
0.930678 0.118868 0.23328
0.982452 0.231876 0.431189
0.999237 0.469413 0.664546
1 0.698299 0.813916
0.00318914 0.0253605 0.0198215
0.01561 0.01561 0.01561
0.249866 0.0189822 0.0306554
0.577508 0.0424506 0.0689555
0.81181 0.0727092 0.124361
0.931014 0.125689 0.234211
0.982483 0.239612 0.432197
0.999222 0.47393 0.664775
1 0.699382 0.813916
0.00350958 0.224353 0.00843824
0.00350958 0.224247 0.00846876
0.221012 0.211078 0.0118563
0.567727 0.176318 0.061265
0.810956 0.157931 0.12488
0.931487 0.188373 0.239445
0.982345 0.296178 0.436408
0.999023 0.507073 0.665568
1 0.706615 0.813931
0.00355535 0.518669 0.0331121
0.00367742 0.518257 0.0331426
0.0301976 0.510216 0.0339055
0.492348 0.480186 0.0584268
0.785168 0.438865 0.124117
0.924254 0.412268 0.243046
0.980056 0.449378 0.439658
0.998352 0.581323 0.6654
1 0.730602 0.813092
0.00410468 0.737499 0.11545
0.00427253 0.737255 0.115999
0.0120699 0.7346 0.119356
0.304707 0.722148 0.144823
0.707103 0.700206 0.195041
0.900389 0.665644 0.280858
0.973373 0.648417 0.447868
0.996765 0.684977 0.663279
1 0.768124 0.811307
0.00781262 0.86244 0.309163
0.00842298 0.862287 0.309163
0.0178531 0.861265 0.309468
0.125811 0.857923 0.313497
0.557046 0.849317 0.345144
0.841505 0.834821 0.403494
0.956268 0.813764 0.507179
0.992676 0.805295 0.669856
0.999985 0.82739 0.808911
0.0307774 0.932631 0.558541
0.0325017 0.932601 0.558511
0.0468147 0.932189 0.558282
0.110109 0.931151 0.558312
0.394324 0.928985 0.562753
0.748989 0.923598 0.591119
0.916411 0.914687 0.642695
0.982132 0.901869 0.716442
0.99942 0.89752 0.814343
0.114473 0.968734 0.755261
0.116533 0.968719 0.755245
0.13283 0.968597 0.755138
0.209842 0.968261 0.755215
0.390738 0.96762 0.755489
0.672129 0.966186 0.758892
0.867735 0.962936 0.777188
0.958114 0.958022 0.806119
0.993042 0.951263 0.847593
0.398917 0.986374 0.872877
0.401709 0.986374 0.872877
0.420844 0.986343 0.872847
0.47512 0.986221 0.87274
0.564858 0.986023 0.872663
0.696834 0.98558 0.872633
0.833524 0.984665 0.874235
0.932891 0.982712 0.883741
0.980026 0.979812 0.900618
0.00737011 0.00544747 0.196399
0.0187533 0.00529488 0.19736
0.25658 0.00680552 0.201236
0.580728 0.0320745 0.204089
0.811734 0.0643015 0.233036
0.930465 0.118563 0.313222
0.98204 0.231159 0.478248
0.999084 0.467231 0.678981
1 0.697215 0.817746
0.00590524 0.0134737 0.200168
0.0133364 0.0132143 0.201053
0.2551 0.0126497 0.204349
0.580285 0.0377203 0.206714
0.811902 0.0706951 0.234394
0.930694 0.124269 0.314443
0.982055 0.238041 0.479072
0.999069 0.471595 0.679164
1 0.698299 0.817716
0.00350958 0.226719 0.212192
0.00350958 0.226413 0.213199
0.216327 0.216327 0.216342
0.566506 0.17911 0.212985
0.809079 0.156466 0.239872
0.930449 0.188098 0.32047
0.981735 0.296193 0.483436
0.998856 0.505364 0.679316
1 0.705531 0.817517
0.00350958 0.515267 0.191669
0.00358587 0.514824 0.192325
0.0263371 0.508263 0.193606
0.487892 0.479698 0.218647
0.780484 0.438056 0.243931
0.92192 0.412085 0.32343
0.979202 0.44947 0.484215
0.998154 0.580041 0.678889
1 0.730022 0.816663
0.0040589 0.734417 0.23798
0.00419623 0.734157 0.238224
0.011902 0.731395 0.239017
0.302541 0.720165 0.254261
0.70486 0.698131 0.293355
0.897887 0.664134 0.349859
0.972244 0.647196 0.493324
0.996506 0.683986 0.678218
1 0.767559 0.81471
0.00779736 0.860822 0.372335
0.00825513 0.860655 0.372366
0.0176699 0.859556 0.372473
0.127062 0.856352 0.374289
0.555901 0.848325 0.40174
0.840711 0.834211 0.455558
0.955245 0.813092 0.541222
0.99234 0.804974 0.684016
0.999985 0.827008 0.81355
0.0310369 0.93228 0.583307
0.0327764 0.932235 0.583337
0.0469825 0.931823 0.583017
0.110536 0.930724 0.583017
0.39527 0.928603 0.585595
0.748638 0.923186 0.612528
0.916167 0.914336 0.660975
0.981826 0.901625 0.726162
0.999374 0.897505 0.818265
0.114992 0.968627 0.762341
0.116976 0.968612 0.762356
0.133486 0.96849 0.762219
0.21117 0.968154 0.76228
0.39202 0.967514 0.762539
0.672389 0.96611 0.765393
0.867674 0.962798 0.783062
0.958038 0.957946 0.810239
0.992966 0.951217 0.849851
0.399939 0.986343 0.874403
0.402777 0.986343 0.874388
0.421866 0.986313 0.874357
0.476158 0.986191 0.87425
0.565393 0.985992 0.874174
0.697108 0.98555 0.874144
0.8336 0.984649 0.875624
0.932891 0.982666 0.885023
0.980011 0.979782 0.901717
0.0186007 0.0244144 0.460273
0.0281529 0.0237125 0.460609
0.244846 0.0182498 0.463767
0.580209 0.0247501 0.467048
0.807767 0.0605631 0.465812
0.928023 0.117479 0.494438
0.980652 0.230594 0.584588
0.998657 0.462486 0.713863
1 0.69485 0.826627
0.0150454 0.0424048 0.462089
0.0230106 0.0415045 0.462394
0.238117 0.0331121 0.464805
0.578546 0.0340124 0.467887
0.807385 0.0679789 0.466529
0.927932 0.123629 0.495033
0.980606 0.238911 0.585077
0.998627 0.467994 0.713924
1 0.696025 0.826612
0.00459297 0.224186 0.470176
0.00543221 0.223255 0.470451
0.171557 0.211383 0.470375
0.554803 0.187594 0.472709
0.799725 0.167468 0.468711
0.925917 0.193957 0.496559
0.979995 0.295323 0.585946
0.998367 0.501884 0.71426
1 0.704494 0.826261
0.00350958 0.506371 0.47686
0.00352483 0.505669 0.477043
0.0344091 0.498192 0.477073
0.477073 0.477089 0.477134
0.766079 0.437491 0.470192
0.914992 0.416022 0.499092
0.976852 0.450416 0.584558
0.997604 0.578317 0.71429
1 0.728023 0.825254
0.00395209 0.726162 0.462181
0.00415045 0.725765 0.462196
0.0100862 0.722698 0.462058
0.299779 0.71371 0.462516
0.698985 0.693538 0.487098
0.890867 0.662181 0.509178
0.969467 0.647196 0.59057
0.99585 0.682811 0.713191
1 0.766003 0.824933
0.00741588 0.857649 0.51693
0.00857557 0.857496 0.516823
0.0188907 0.856352 0.516579
0.132113 0.85304 0.516808
0.55404 0.846143 0.528984
0.838071 0.832258 0.566491
0.952605 0.812619 0.617441
0.991562 0.803891 0.717235
0.999969 0.826596 0.823896
0.0320287 0.930922 0.642969
0.0340734 0.930861 0.642954
0.0472114 0.930449 0.642893
0.111406 0.929351 0.642924
0.399603 0.927291 0.644526
0.747875 0.922225 0.66479
0.915633 0.91371 0.700267
0.981079 0.900984 0.750347
0.999115 0.897047 0.829053
0.116487 0.968261 0.780636
0.118441 0.968246 0.780636
0.136675 0.968109 0.780606
0.214511 0.967773 0.780606
0.395636 0.967102 0.780865
0.672953 0.965743 0.781491
0.867521 0.962539 0.795666
0.957839 0.957732 0.820966
0.992782 0.951019 0.855589
0.402472 0.986267 0.878401
0.40531 0.986252 0.878401
0.424628 0.986221 0.878386
0.478965 0.986114 0.878279
0.566842 0.985901 0.878187
0.697871 0.985473 0.878141
0.833829 0.984573 0.879316
0.93283 0.982559 0.888518
0.97998 0.979706 0.904189
0.0244907 0.0955062 0.695537
0.0333715 0.0937057 0.69546
0.214893 0.0829633 0.694591
0.556069 0.0707561 0.696178
0.785687 0.0787366 0.695491
0.91989 0.129946 0.689738
0.9776 0.238285 0.708217
0.997726 0.461372 0.767849
1 0.689632 0.844923
0.0220645 0.117815 0.695872
0.0295262 0.115465 0.695781
0.206134 0.10161 0.694759
0.551949 0.0843671 0.696269
0.784268 0.0878309 0.69575
0.919432 0.140597 0.689494
0.977493 0.246845 0.70837
0.997696 0.46598 0.767849
1 0.691371 0.844892
0.0115969 0.259648 0.696727
0.015198 0.258122 0.696666
0.139483 0.245975 0.695689
0.521294 0.224231 0.69546
0.773892 0.211368 0.695384
0.915434 0.220142 0.688838
0.976257 0.307271 0.708492
0.997406 0.499138 0.767803
1 0.702998 0.844648
0.00492866 0.501869 0.695689
0.00555428 0.500877 0.695567
0.0426795 0.493004 0.69453
0.439323 0.474159 0.691661
0.743557 0.45539 0.690959
0.902815 0.431205 0.685512
0.97258 0.457755 0.708537
0.996551 0.57673 0.767529
1 0.724071 0.84416
0.00387579 0.718029 0.693797
0.00408942 0.717601 0.693767
0.0112306 0.714427 0.693294
0.301625 0.705562 0.691905
0.692012 0.692027 0.692073
0.87924 0.663432 0.687587
0.964584 0.650706 0.707744
0.994614 0.682322 0.76669
1 0.764523 0.843076
0.00822461 0.852903 0.684245
0.0090486 0.852766 0.684138
0.0205692 0.851575 0.683574
0.14313 0.848264 0.682292
0.554513 0.842603 0.681849
0.83357 0.830167 0.69926
0.947982 0.81149 0.716472
0.990066 0.803098 0.768261
0.999908 0.826658 0.841489
0.0340429 0.928847 0.725948
0.0358587 0.928786 0.725902
0.0492256 0.928405 0.725536
0.119631 0.927306 0.725048
0.409186 0.92517 0.725109
0.747051 0.920714 0.733288
0.914351 0.912077 0.759426
0.979675 0.900465 0.787762
0.998734 0.896757 0.844999
0.118349 0.967605 0.807752
0.120409 0.96759 0.807736
0.144808 0.967437 0.80766
0.219089 0.967117 0.807446
0.403311 0.966461 0.807279
0.674815 0.965133 0.807675
0.867308 0.962097 0.818586
0.957473 0.957397 0.840635
0.992432 0.950652 0.8663
0.407477 0.986053 0.886137
0.410269 0.986053 0.886137
0.42948 0.986023 0.886137
0.484672 0.985901 0.886046
0.569863 0.985687 0.885954
0.699519 0.985245 0.885924
0.834363 0.984344 0.886702
0.932723 0.982376 0.895216
0.979904 0.979583 0.908614
0.0407111 0.257145 0.841077
0.0496529 0.255222 0.84097
0.168948 0.243641 0.840101
0.51136 0.224155 0.83888
0.756512 0.210468 0.838254
0.896178 0.219394 0.835798
0.970016 0.295003 0.830533
0.995712 0.47628 0.84123
1 0.689555 0.875837
0.0393225 0.271794 0.840925
0.0482795 0.269917 0.840818
0.16524 0.25861 0.839963
0.507149 0.238972 0.838651
0.754696 0.224384 0.838056
0.895582 0.233066 0.835676
0.969757 0.303716 0.830442
0.995666 0.480995 0.841199
1 0.690776 0.875807
0.0297551 0.36434 0.840116
0.0373999 0.362783 0.839994
0.131899 0.352865 0.839155
0.481376 0.333333 0.837324
0.744732 0.318685 0.836759
0.891646 0.316518 0.834516
0.968215 0.362005 0.829648
0.995315 0.512779 0.841047
1 0.698985 0.875624
0.0179904 0.542306 0.83711
0.0221714 0.541009 0.837003
0.0741283 0.533532 0.836271
0.40621 0.517403 0.834424
0.717845 0.500648 0.833127
0.881392 0.489418 0.831708
0.96379 0.496925 0.828183
0.994232 0.588357 0.840055
1 0.725414 0.875013
0.0110628 0.715816 0.832929
0.0137179 0.715206 0.832853
0.040177 0.711727 0.832273
0.293553 0.703044 0.830747
0.663752 0.689906 0.828794
0.86215 0.67689 0.828458
0.956039 0.661707 0.826047
0.992096 0.689494 0.838621
1 0.764141 0.874128
0.0108186 0.847562 0.831891
0.0122377 0.847379 0.83183
0.0249485 0.846189 0.831449
0.175738 0.842771 0.830381
0.561257 0.837232 0.829007
0.828458 0.828458 0.828504
0.940246 0.810925 0.825147
0.987152 0.803601 0.838941
0.999725 0.826474 0.872755
0.0374151 0.925139 0.826261
0.0399176 0.925093 0.82623
0.0575723 0.924727 0.826017
0.136645 0.923629 0.825498
0.427756 0.921431 0.824948
0.747738 0.917678 0.825269
0.912062 0.910018 0.835431
0.976898 0.899367 0.844266
0.997848 0.896574 0.874784
0.129839 0.966384 0.853742
0.133837 0.966369 0.853727
0.16202 0.966232 0.85359
0.230091 0.965927 0.853284
0.419364 0.96527 0.852811
0.679454 0.963928 0.852445
0.866438 0.961257 0.85658
0.956771 0.956451 0.870588
0.991608 0.950088 0.887663
0.418845 0.985565 0.901991
0.421546 0.985565 0.901991
0.441978 0.985519 0.901946
0.496742 0.985397 0.901839
0.577096 0.985199 0.901671
0.703471 0.984756 0.901427
0.835828 0.983886 0.901457
0.932601 0.982071 0.906905
0.979736 0.979355 0.917815
0.0893873 0.491661 0.922881
0.0979782 0.490455 0.92282
0.182177 0.483879 0.922438
0.462577 0.468437 0.921508
0.719814 0.4533 0.920623
0.871916 0.445609 0.91989
0.951843 0.465827 0.917632
0.990982 0.553536 0.91281
0.999985 0.700847 0.918441
0.0877546 0.498497 0.922789
0.0963302 0.497292 0.922744
0.178973 0.490929 0.922347
0.459739 0.47567 0.921416
0.718334 0.460487 0.920531
0.871336 0.452705 0.919799
0.951629 0.472236 0.917556
0.990906 0.557702 0.912779
0.999985 0.702098 0.918425
0.0771954 0.543816 0.922225
0.0855879 0.542626 0.922179
0.168002 0.536706 0.921798
0.441215 0.523598 0.920897
0.708644 0.508171 0.919875
0.867582 0.499977 0.919112
0.950225 0.515145 0.917006
0.990417 0.582528 0.912383
0.999985 0.710536 0.918334
0.0650645 0.636957 0.920851
0.0696727 0.636255 0.920806
0.141054 0.631861 0.920439
0.39057 0.621149 0.919585
0.689219 0.606973 0.918196
0.859358 0.596017 0.917296
0.947326 0.598184 0.91548
0.989258 0.639139 0.911391
0.999786 0.735088 0.918105
0.0490272 0.74226 0.918257
0.0538186 0.741955 0.918196
0.100923 0.738979 0.917861
0.318196 0.732555 0.917021
0.63917 0.723095 0.915679
0.843687 0.712566 0.914412
0.941161 0.707164 0.9131
0.98677 0.717601 0.90988
0.999664 0.771481 0.917342
0.0407874 0.844724 0.914046
0.0441444 0.844495 0.914015
0.0758373 0.843183 0.913771
0.23006 0.840177 0.9131
0.556939 0.835416 0.91194
0.809842 0.827665 0.910353
0.928954 0.821408 0.90959
0.981888 0.813886 0.907698
0.999115 0.829633 0.915785
0.0556649 0.921477 0.911574
0.0582132 0.921401 0.911543
0.0877241 0.920974 0.911391
0.190677 0.919875 0.910979
0.464851 0.917891 0.910292
0.754131 0.914443 0.909438
0.9093 0.9093 0.909331
0.971893 0.899992 0.907912
0.996201 0.896605 0.914885
0.165072 0.964172 0.908446
0.168475 0.964157 0.908431
0.19147 0.964034 0.908309
0.278233 0.963684 0.90811
0.456062 0.963043 0.907683
0.690959 0.961654 0.907149
0.866743 0.959304 0.907012
0.955459 0.954879 0.913436
0.990036 0.949081 0.919158
0.450294 0.984756 0.925566
0.453315 0.984741 0.925566
0.473838 0.984695 0.925536
0.52137 0.984588 0.925429
0.595117 0.984405 0.925307
0.712291 0.983948 0.925078
0.839628 0.983047 0.925048
0.932387 0.981384 0.927733
0.979355 0.978729 0.934493
0.212848 0.714336 0.964218
0.224125 0.713985 0.964202
0.298619 0.711711 0.96408
0.475029 0.706371 0.963684
0.686793 0.698116 0.963058
0.845701 0.689616 0.962295
0.936065 0.686854 0.961501
0.979736 0.701198 0.960189
0.998749 0.756069 0.95787
0.211719 0.716381 0.964187
0.22298 0.71603 0.964172
0.297383 0.713756 0.964034
0.473686 0.708507 0.963653
0.685939 0.700313 0.963027
0.845258 0.691844 0.962249
0.935912 0.688655 0.961456
0.979675 0.702846 0.960159
0.998718 0.757244 0.957855
0.20415 0.730343 0.963912
0.215305 0.730007 0.963897
0.289052 0.727733 0.963775
0.464576 0.723049 0.963394
0.680217 0.71516 0.962768
0.842603 0.705425 0.96199
0.93492 0.700938 0.961242
0.979278 0.714092 0.959991
0.998566 0.764797 0.957732
0.187396 0.758999 0.963363
0.195026 0.758816 0.963348
0.266377 0.756497 0.963226
0.447196 0.75259 0.96286
0.668757 0.745678 0.962264
0.836744 0.736187 0.96141
0.932418 0.732067 0.960708
0.978256 0.742748 0.959564
0.99826 0.779049 0.957351
0.180606 0.803723 0.962264
0.187884 0.803525 0.962249
0.239933 0.802335 0.962112
0.408591 0.798962 0.961776
0.634745 0.793683 0.961196
0.826963 0.785992 0.960189
0.927779 0.781369 0.959518
0.976562 0.783139 0.958587
0.997681 0.804715 0.95668
0.149157 0.862425 0.960372
0.154025 0.862333 0.960342
0.201999 0.861448 0.96022
0.35967 0.85948 0.95993
0.586114 0.856077 0.959411
0.799908 0.850492 0.958495
0.918669 0.845197 0.957641
0.972625 0.842863 0.957076
0.99617 0.848219 0.955444
0.160113 0.919554 0.957839
0.166552 0.919478 0.957824
0.209903 0.919036 0.957732
0.324742 0.918059 0.957504
0.53695 0.916274 0.957107
0.756252 0.913268 0.95639
0.899886 0.908446 0.955459
0.965316 0.905058 0.95494
0.993179 0.902144 0.953582
0.26305 0.96141 0.955871
0.268147 0.961395 0.955856
0.302892 0.961242 0.955795
0.3897 0.960906 0.955642
0.533272 0.960281 0.955367
0.719676 0.959014 0.954849
0.870436 0.956863 0.954192
0.953902 0.953902 0.953918
0.98735 0.948882 0.953094
0.514961 0.983352 0.954681
0.517098 0.983352 0.954665
0.531807 0.983307 0.954635
0.569802 0.983215 0.954543
0.640131 0.982986 0.954391
0.733898 0.982589 0.954101
0.848219 0.981704 0.953628
0.932937 0.980331 0.953384
0.978576 0.977981 0.956374
0.482872 0.849439 0.984649
0.488396 0.849332 0.984634
0.526146 0.84863 0.984588
0.608774 0.847181 0.984482
0.712642 0.84445 0.984237
0.830259 0.839811 0.98381
0.919249 0.835309 0.983261
0.969467 0.835035 0.982635
0.99234 0.846555 0.981659
0.482597 0.849867 0.984634
0.488121 0.849775 0.984619
0.525841 0.849058 0.984573
0.608316 0.847623 0.984466
0.712428 0.844907 0.984222
0.830106 0.840284 0.983795
0.919158 0.835782 0.983246
0.969421 0.835508 0.98262
0.992325 0.846983 0.981643
0.480766 0.852903 0.984558
0.486275 0.852796 0.984543
0.523842 0.852094 0.984497
0.605219 0.850675 0.98439
0.710887 0.848066 0.984146
0.828962 0.843549 0.983719
0.918456 0.839063 0.983169
0.969116 0.838773 0.982544
0.992218 0.849439 0.981598
0.476188 0.860853 0.984344
0.481636 0.860746 0.984329
0.518791 0.860044 0.984283
0.597223 0.858686 0.984176
0.706966 0.856352 0.983948
0.826001 0.852155 0.98352
0.91664 0.847669 0.98294
0.968338 0.847379 0.982345
0.991943 0.855558 0.981445
0.46743 0.875532 0.983948
0.472999 0.875486 0.983932
0.50959 0.874952 0.983886
0.582834 0.873686 0.98378
0.698436 0.871794 0.983551
0.819593 0.868147 0.983139
0.913375 0.863416 0.982544
0.96701 0.861555 0.981994
0.99144 0.867124 0.981186
0.450996 0.897566 0.983185
0.455955 0.89752 0.983185
0.489845 0.8972 0.983154
0.569894 0.896468 0.983032
0.6804 0.89453 0.982818
0.80618 0.891447 0.982422
0.908446 0.887236 0.981765
0.964477 0.8851 0.981231
0.990402 0.888334 0.980468
0.443519 0.929656 0.981796
0.448035 0.929625 0.981796
0.477501 0.929473 0.98175
0.547662 0.928801 0.981643
0.655055 0.927749 0.98146
0.782712 0.925704 0.981094
0.893751 0.922545 0.980484
0.95906 0.919631 0.979889
0.988067 0.919326 0.979355
0.493706 0.960769 0.979812
0.496574 0.960769 0.979812
0.515862 0.960647 0.979782
0.565484 0.960342 0.979721
0.649775 0.959838 0.979568
0.760449 0.958785 0.979294
0.874083 0.95697 0.978775
0.948791 0.95433 0.978149
0.983856 0.952377 0.977905
0.631006 0.981994 0.978882
0.632273 0.981994 0.978882
0.641016 0.981949 0.978866
0.663859 0.981857 0.978821
0.706294 0.981659 0.978729
0.774289 0.981262 0.978561
0.860517 0.980468 0.978241
0.935515 0.979171 0.977783
0.977554 0.977569 0.977569
