nikon/nlog/nlog_rec709.cube
# Development Color Space = REC709
# Output Gamma Curve = BT1886
# Output Tonemap = MEDIUM_CONTRAST
# Highlight Rolloff = Rolloff 2 - medium
# Resolution = 33 x 33 x 33
LUT_3D_SIZE 5
0 0 0
0.24828 0.0124514 0.0203098
0.811231 0.0683757 0.113512
0.982498 0.231586 0.424414
1 0.698512 0.813275
0.00350958 0.222843 0.00433356
0.22121 0.208988 0.00779736
0.811185 0.157794 0.112093
0.982422 0.296208 0.429862
1 0.706828 0.813321
0.00411994 0.737987 0.099382
0.0121614 0.73518 0.0990616
0.707424 0.700496 0.178103
0.973556 0.648341 0.440742
1 0.7682 0.810803
0.0307317 0.932692 0.554528
0.0467842 0.93225 0.554604
0.394232 0.929015 0.55938
0.916442 0.914748 0.640009
0.99942 0.89752 0.813825
0.398764 0.986374 0.872663
0.420706 0.986343 0.872618
0.564782 0.986023 0.87245
0.833509 0.98468 0.874037
0.980041 0.979812 0.90045
0.00737011 0.00544747 0.196399
0.25658 0.00680552 0.201236
0.811734 0.0643015 0.233036
0.98204 0.231159 0.478248
1 0.697215 0.817746
0.00350958 0.226719 0.212192
0.216327 0.216327 0.216342
0.809079 0.156466 0.239872
0.981735 0.296193 0.483436
1 0.705531 0.817517
0.0040589 0.734417 0.23798
0.011902 0.731395 0.239017
0.70486 0.698131 0.293355
0.972244 0.647196 0.493324
1 0.767559 0.81471
0.0310369 0.93228 0.583307
0.0469825 0.931823 0.583017
0.39527 0.928603 0.585595
0.916167 0.914336 0.660975
0.999374 0.897505 0.818265
0.399939 0.986343 0.874403
0.421866 0.986313 0.874357
0.565393 0.985992 0.874174
0.8336 0.984649 0.875624
0.980011 0.979782 0.901717
0.0244907 0.0955062 0.695537
0.214893 0.0829633 0.694591
0.785687 0.0787366 0.695491
0.9776 0.238285 0.708217
1 0.689632 0.844923
0.0115969 0.259648 0.696727
0.139483 0.245975 0.695689
0.773892 0.211368 0.695384
0.976257 0.307271 0.708492
1 0.702998 0.844648
0.00387579 0.718029 0.693797
0.0112306 0.714427 0.693294
0.692012 0.692027 0.692073
0.964584 0.650706 0.707744
1 0.764523 0.843076
0.0340429 0.928847 0.725948
0.0492256 0.928405 0.725536
0.409186 0.92517 0.725109
0.914351 0.912077 0.759426
0.998734 0.896757 0.844999
0.407477 0.986053 0.886137
0.42948 0.986023 0.886137
0.569863 0.985687 0.885954
0.834363 0.984344 0.886702
0.979904 0.979583 0.908614
0.0893873 0.491661 0.922881
0.182177 0.483879 0.922438
0.719814 0.4533 0.920623
0.951843 0.465827 0.917632
0.999985 0.700847 0.918441
0.0771954 0.543816 0.922225
0.168002 0.536706 0.921798
0.708644 0.508171 0.919875
0.950225 0.515145 0.917006
0.999985 0.710536 0.918334
0.0490272 0.74226 0.918257
0.100923 0.738979 0.917861
0.63917 0.723095 0.915679
0.941161 0.707164 0.9131
0.999664 0.771481 0.917342
0.0556649 0.921477 0.911574
0.0877241 0.920974 0.911391
0.464851 0.917891 0.910292
0.9093 0.9093 0.909331
0.996201 0.896605 0.914885
0.450294 0.984756 0.925566
0.473838 0.984695 0.925536
0.595117 0.984405 0.925307
0.839628 0.983047 0.925048
0.979355 0.978729 0.934493
0.482872 0.849439 0.984649
0.526146 0.84863 0.984588
0.712642 0.84445 0.984237
0.919249 0.835309 0.983261
0.99234 0.846555 0.981659
0.480766 0.852903 0.984558
0.523842 0.852094 0.984497
0.710887 0.848066 0.984146
0.918456 0.839063 0.983169
0.992218 0.849439 0.981598
0.46743 0.875532 0.983948
0.50959 0.874952 0.983886
0.698436 0.871794 0.983551
0.913375 0.863416 0.982544
0.99144 0.867124 0.981186
0.443519 0.929656 0.981796
0.477501 0.929473 0.98175
0.655055 0.927749 0.98146
0.893751 0.922545 0.980484
0.988067 0.919326 0.979355
0.631006 0.981994 0.978882
0.641016 0.981949 0.978866
0.706294 0.981659 0.978729
0.860517 0.980468 0.978241
0.977554 0.977569 0.977569
