canon/clog2/clog2_rec709.cube
# Gamut : Cinema Gamut to BT.709
# Gamma : Canon Log 2 to Canon 709
# Range : Full in / Full out
# Version : 1.0
# Creation Date: 2025/6/24
# Copyright(c) 2025 Canon Inc. All Rights Reserved.
LUT_3D_SIZE 5
# LUT_3D_INPUT_RANGE 0.0 1.0
0.00000000 0.00000000 0.00000000
0.21656617 0.00000000 0.00587797
0.79967757 0.00000000 0.09208271
1.00000000 0.16324053 0.16165798
1.00000000 0.23277054 0.16545713
0.00000000 0.14293584 0.00000000
0.14125326 0.15458432 0.00000000
0.85649172 0.00000000 0.00000000
1.00000000 0.24701444 0.20807402
1.00000000 0.30010394 0.22461837
0.00000000 0.62134370 0.04040660
0.00000000 0.64076752 0.00000000
0.67394387 0.72100048 0.00000000
1.00000000 0.65069294 0.50099724
1.00000000 0.65508716 0.58052385
0.00000000 0.90442402 0.00000000
0.00000000 0.91832852 0.00000000
0.08837733 1.00000000 0.00000000
0.94353618 1.00000000 0.48132638
1.00000000 0.86108302 0.77626884
0.00000000 0.93898637 0.00000000
0.00000000 0.95253809 0.00000000
0.36321828 1.00000000 0.20214641
0.84356755 1.00000000 0.75332510
0.98458680 1.00000000 0.86643020
0.00589129 0.00000000 0.16238674
0.19818536 0.00000000 0.16603239
0.77741008 0.00000000 0.23413005
1.00000000 0.15144662 0.17007071
1.00000000 0.22309103 0.15860732
0.00000000 0.14497454 0.13187181
0.14037506 0.14037506 0.14037506
0.84245814 0.00000000 0.16792686
1.00000000 0.23684422 0.21397140
1.00000000 0.29059441 0.21719888
0.00000000 0.66436867 0.12053178
0.00000000 0.68349552 0.02452307
0.69142507 0.73937792 0.00000000
1.00000000 0.65949055 0.51938558
1.00000000 0.66392364 0.59106104
0.00000000 0.93407947 0.00000000
0.00000000 0.94740090 0.00000000
0.29328999 1.00000000 0.04896001
0.95357497 1.00000000 0.60257070
1.00000000 0.87197869 0.79506495
0.00000000 0.96695017 0.00000000
0.00000000 0.97918398 0.00000000
0.47772489 1.00000000 0.33107638
0.88056378 1.00000000 0.81054619
0.99707126 1.00000000 0.95225117
0.04630403 0.00000000 0.61870836
0.14614650 0.00000000 0.53895049
0.69953946 0.00000000 0.57347018
1.00000000 0.03691374 0.38286942
0.99535914 0.18982227 0.15816511
0.00000000 0.10140717 0.52519515
0.04628650 0.00000000 0.60719583
0.72391885 0.00000000 0.59476917
1.00000000 0.05873221 0.38096608
0.99892055 0.20477135 0.16775124
0.00000000 0.66769292 0.63016671
0.00000000 0.68013184 0.64185709
0.68263283 0.68263476 0.68263383
1.00000000 0.69062338 0.69412013
1.00000000 0.72149925 0.66962841
0.00000000 1.00000000 0.17799315
0.10204491 1.00000000 0.21926536
0.69153358 1.00000000 0.60330642
1.00000000 1.00000000 1.00000000
1.00000000 1.00000000 1.00000000
0.46891108 1.00000000 0.33615907
0.50996341 1.00000000 0.37971164
0.85491331 1.00000000 0.79308461
1.00000000 1.00000000 1.00000000
1.00000000 1.00000000 1.00000000
0.00000000 0.02883221 0.81668280
0.00000000 0.00017678 0.81728052
0.35211327 0.00000000 0.97497193
0.96125998 0.00000000 0.76934700
1.00000000 0.11677648 0.40547729
0.00000000 0.12597095 0.75782650
0.00000000 0.04242451 0.82054940
0.33671431 0.00000000 0.98510761
0.96629674 0.00000000 0.77352349
1.00000000 0.12814421 0.40788605
0.00000000 0.52176055 0.94408258
0.00000000 0.53006857 0.96899601
0.46792285 0.62815379 1.00000000
1.00000000 0.58861740 0.89920573
1.00000000 0.64825998 0.71646325
0.00000000 0.99093004 0.92847005
0.00000000 0.99774000 0.93512278
0.34769767 1.00000000 0.97552180
0.98887723 0.98888630 0.98888193
1.00000000 1.00000000 1.00000000
0.29301223 1.00000000 0.27340297
0.35342951 1.00000000 0.31702031
0.79164334 1.00000000 0.73731173
1.00000000 1.00000000 1.00000000
1.00000000 1.00000000 1.00000000
0.00000000 0.18954052 0.64988179
0.00000000 0.18453837 0.63560122
0.00000000 0.18046859 0.93012494
0.43797029 0.27082424 1.00000000
1.00000000 0.00000000 0.78989709
0.00000000 0.19859255 0.67826270
0.00000000 0.19322572 0.66345101
0.00000000 0.18153435 0.92124470
0.43752160 0.27379834 1.00000000
1.00000000 0.00000000 0.79267464
0.16503473 0.47102006 1.00000000
0.19139317 0.48553784 1.00000000
0.41653715 0.62739553 1.00000000
0.69606936 0.69053853 1.00000000
1.00000000 0.61255359 0.89072976
0.53059281 0.82866960 1.00000000
0.54862032 0.83587212 1.00000000
0.76494009 0.91851193 1.00000000
0.97200478 0.98580382 1.00000000
1.00000000 0.99532372 1.00000000
0.00000000 1.00000000 0.96304877
0.00000000 1.00000000 0.96760267
0.62562146 1.00000000 0.98690757
1.00000000 1.00000000 1.00000000
1.00000000 1.00000000 1.00000000
