canon/clog2/clog2_rec709.cube
# Gamut : Cinema Gamut to BT.709
# Gamma : Canon Log 2 to Canon 709
# Range : Full in / Full out
# Version : 1.0
# Creation Date: 2025/6/24
# Copyright(c) 2025 Canon Inc. All Rights Reserved.
LUT_3D_SIZE 9
# LUT_3D_INPUT_RANGE 0.0 1.0
0.00000000 0.00000000 0.00000000
0.03929979 0.00627938 0.00906798
0.21656617 0.00000000 0.00587797
0.49175667 0.00000000 0.02759150
0.79967757 0.00000000 0.09208271
0.99321178 0.00000000 0.11386732
1.00000000 0.16324053 0.16165798
1.00000000 0.21718278 0.17233362
1.00000000 0.23277054 0.16545713
0.00000000 0.03211637 0.00294041
0.02673528 0.02929793 0.00232559
0.21049245 0.00423332 0.00043777
0.50080115 0.00000000 0.01211493
0.80881999 0.00000000 0.07869653
0.99619522 0.00000000 0.11392724
1.00000000 0.17390775 0.16714287
1.00000000 0.22588914 0.17887333
1.00000000 0.24105757 0.17255215
0.00000000 0.14293584 0.00000000
0.00000000 0.14778259 0.00000000
0.14125326 0.15458432 0.00000000
0.46647936 0.13119474 0.00000000
0.85649172 0.00000000 0.00000000
1.00000000 0.10829046 0.12104159
1.00000000 0.24701444 0.20807402
1.00000000 0.28756089 0.22724644
1.00000000 0.30010394 0.22461837
0.00000000 0.34923175 0.01940318
0.00000000 0.35321140 0.00853503
0.01974152 0.37289043 0.00000000
0.37593022 0.40249649 0.00000000
0.81678759 0.37230259 0.00000000
1.00000000 0.36771900 0.20429208
1.00000000 0.43045911 0.34187784
1.00000000 0.45492261 0.37750397
1.00000000 0.46113412 0.37995752
0.00000000 0.62134370 0.04040660
0.00000000 0.62371973 0.03092112
0.00000000 0.64076752 0.00000000
0.21566473 0.68469635 0.00000000
0.67394387 0.72100048 0.00000000
1.00000000 0.64632532 0.18031130
1.00000000 0.65069294 0.50099724
1.00000000 0.65373917 0.56629094
1.00000000 0.65508716 0.58052385
0.00000000 0.81636460 0.00000000
0.00000000 0.81818969 0.00000000
0.00000000 0.83241919 0.00000000
0.00000000 0.88083638 0.00000000
0.29688415 0.95541059 0.00000000
0.87319612 0.93715263 0.00000000
1.00000000 0.84013615 0.53932740
1.00000000 0.80062128 0.69176760
1.00000000 0.78343035 0.71471227
0.00000000 0.90442402 0.00000000
0.00000000 0.90601389 0.00000000
0.00000000 0.91832852 0.00000000
0.00000000 0.96603545 0.00000000
0.08837733 1.00000000 0.00000000
0.66208088 1.00000000 0.35403976
0.94353618 1.00000000 0.48132638
1.00000000 0.91648141 0.73475032
1.00000000 0.86108302 0.77626884
0.00000000 0.93223590 0.00000000
0.00000000 0.93373709 0.00000000
0.00000000 0.94576832 0.00000000
0.00000000 0.99275693 0.00000000
0.30568408 1.00000000 0.13788596
0.69929633 1.00000000 0.55535950
0.85628091 1.00000000 0.71402077
0.97314286 1.00000000 0.77281642
1.00000000 0.94139889 0.80116648
0.00000000 0.93898637 0.00000000
0.00000000 0.94048730 0.00000000
0.00000000 0.95253809 0.00000000
0.00000000 0.99910168 0.00000000
0.36321828 1.00000000 0.20214641
0.71300567 1.00000000 0.59564287
0.84356755 1.00000000 0.75332510
0.91251003 1.00000000 0.82169263
0.98458680 1.00000000 0.86643020
0.00773713 0.00513940 0.03199279
0.03786730 0.00174107 0.03182424
0.21982957 0.00000000 0.02688551
0.48542286 0.00000000 0.05511908
0.79649604 0.00000000 0.10678948
0.99357285 0.00000000 0.11536919
1.00000000 0.15640471 0.15900850
1.00000000 0.21237415 0.16902032
1.00000000 0.22819722 0.16165462
0.00000000 0.02834552 0.02545739
0.02500395 0.02500395 0.02500395
0.21351489 0.00000000 0.02040029
0.49406802 0.00000000 0.03919948
0.80610936 0.00000000 0.09319223
0.99631789 0.00000000 0.11578799
1.00000000 0.16795474 0.16486227
1.00000000 0.22158778 0.17589142
1.00000000 0.23697658 0.16913334
0.00000000 0.16416961 0.00000000
0.00000000 0.16878965 0.00000000
0.14910776 0.16291372 0.00000000
0.48078520 0.11929658 0.00000000
0.85904459 0.00000000 0.00000000
1.00000000 0.10384140 0.12420419
1.00000000 0.24405743 0.20715282
1.00000000 0.28525318 0.22563928
1.00000000 0.29788834 0.22270310
0.00000000 0.35767313 0.03293326
0.00000000 0.36156353 0.02131950
0.01190807 0.38118366 0.00000000
0.37943196 0.40625051 0.00000000
0.82291159 0.37002761 0.00000000
1.00000000 0.36813513 0.20886450
1.00000000 0.43061009 0.34312459
1.00000000 0.45529452 0.37826666
1.00000000 0.46138043 0.38036391
0.00000000 0.62601947 0.04935968
0.00000000 0.62837167 0.03971464
0.00000000 0.64539900 0.00000000
0.21136715 0.68887896 0.00000000
0.67586884 0.72304071 0.00000000
1.00000000 0.64760155 0.18685498
1.00000000 0.65189633 0.50343818
1.00000000 0.65487940 0.56789109
1.00000000 0.65622485 0.58191826
0.00000000 0.81991223 0.00000000
0.00000000 0.82172398 0.00000000
0.00000000 0.83587844 0.00000000
0.00000000 0.88423541 0.00000000
0.29501266 0.95779276 0.00000000
0.87448294 0.93857765 0.00000000
1.00000000 0.84154673 0.54412012
1.00000000 0.80187334 0.69390174
1.00000000 0.78464429 0.71634546
0.00000000 0.90767579 0.00000000
0.00000000 0.90925231 0.00000000
0.00000000 0.92156062 0.00000000
0.00000000 0.96890232 0.00000000
0.12138930 1.00000000 0.00000000
0.66832254 1.00000000 0.36709756
0.94458429 1.00000000 0.49632212
1.00000000 0.91765967 0.73885026
1.00000000 0.86227723 0.77830417
0.00000000 0.93541528 0.00000000
0.00000000 0.93690633 0.00000000
0.00000000 0.94885228 0.00000000
0.00000000 0.99522899 0.00000000
0.32263099 1.00000000 0.15884432
0.70551599 1.00000000 0.56401309
0.86035088 1.00000000 0.72222724
0.97444451 1.00000000 0.78398756
1.00000000 0.94256111 0.80640094
0.00000000 0.94208942 0.00000000
0.00000000 0.94358009 0.00000000
0.00000000 0.95554746 0.00000000
0.00000000 1.00000000 0.00000000
0.37772772 1.00000000 0.21882183
0.71896928 1.00000000 0.60341531
0.84787947 1.00000000 0.75995667
0.91607301 1.00000000 0.82913555
0.98599648 1.00000000 0.87757300
0.00589129 0.00000000 0.16238674
0.02571718 0.00000000 0.17643346
0.19818536 0.00000000 0.16603239
0.45921056 0.00000000 0.19799397
0.77741008 0.00000000 0.23413005
0.98393012 0.00000000 0.19388963
1.00000000 0.15144662 0.17007071
1.00000000 0.20736116 0.16940980
1.00000000 0.22309103 0.15860732
0.00000000 0.00000000 0.16493688
0.00826542 0.00000000 0.18008876
0.19795886 0.00000000 0.16632972
0.46573969 0.00000000 0.19594788
0.78448271 0.00000000 0.22870537
0.98796968 0.00000000 0.19252963
1.00000000 0.16278940 0.17541124
1.00000000 0.21632242 0.17593605
1.00000000 0.23156098 0.16575539
0.00000000 0.14497454 0.13187181
0.00000000 0.14756704 0.13494819
0.14037506 0.14037506 0.14037506
0.51824141 0.03155443 0.13001976
0.84245814 0.00000000 0.16792686
1.00000000 0.08687804 0.18984834
1.00000000 0.23684422 0.21397140
1.00000000 0.27794711 0.22308450
1.00000000 0.29059441 0.21719888
0.00000000 0.42896321 0.15290174
0.00000000 0.43103732 0.14259606
0.00000000 0.44241189 0.03415262
0.40287155 0.42785292 0.00000000
0.89162754 0.32745420 0.00000000
1.00000000 0.35632391 0.22921230
1.00000000 0.42155847 0.34270273
1.00000000 0.44872838 0.37395391
1.00000000 0.45467346 0.37384368
0.00000000 0.66436867 0.12053178
0.00000000 0.66667486 0.11157825
0.00000000 0.68349552 0.02452307
0.15270389 0.72431732 0.00000000
0.69142507 0.73937792 0.00000000
1.00000000 0.65550143 0.22865959
1.00000000 0.65949055 0.51938558
1.00000000 0.66247678 0.57844858
1.00000000 0.66392364 0.59106104
0.00000000 0.84892320 0.00000000
0.00000000 0.85074876 0.00000000
0.00000000 0.86432811 0.00000000
0.00000000 0.91197932 0.00000000
0.28068156 0.97685329 0.00000000
0.88472092 0.95001373 0.00000000
1.00000000 0.85225523 0.57924532
1.00000000 0.81145807 0.70984659
1.00000000 0.79412516 0.72896318
0.00000000 0.93407947 0.00000000
0.00000000 0.93567144 0.00000000
0.00000000 0.94740090 0.00000000
0.00000000 0.99124903 0.00000000
0.29328999 1.00000000 0.04896001
0.71505155 1.00000000 0.46132690
0.95357497 1.00000000 0.60257070
1.00000000 0.92712983 0.77304819
1.00000000 0.87197869 0.79506495
0.00000000 0.96097959 0.00000000
0.00000000 0.96240342 0.00000000
0.00000000 0.97328755 0.00000000
0.00000000 1.00000000 0.00000000
0.43645019 1.00000000 0.28928156
0.75229550 1.00000000 0.62986926
0.89119800 1.00000000 0.78422798
0.98515178 1.00000000 0.86706784
1.00000000 0.95157917 0.84529777
0.00000000 0.96695017 0.00000000
0.00000000 0.96834339 0.00000000
0.00000000 0.97918398 0.00000000
0.00000000 1.00000000 0.00000000
0.47772489 1.00000000 0.33107638
0.76367372 1.00000000 0.66252324
0.88056378 1.00000000 0.81054619
0.94269470 1.00000000 0.88430439
0.99707126 1.00000000 0.95225117
0.02614540 0.00000000 0.38777091
0.04272695 0.00000000 0.37890393
0.16012532 0.00000000 0.30753452
0.41657971 0.00000000 0.34663437
0.74379974 0.00000000 0.39369955
0.96526793 0.00000000 0.33672114
1.00000000 0.11018634 0.24655517
1.00000000 0.18871945 0.17369235
1.00000000 0.20898905 0.15125987
0.00869934 0.00000000 0.39219047
0.02628850 0.00000000 0.38854568
0.15321321 0.00000000 0.31526071
0.41999140 0.00000000 0.34964072
0.74920153 0.00000000 0.39313922
0.96936660 0.00000000 0.33441476
1.00000000 0.11482394 0.24702965
1.00000000 0.19198272 0.17539465
1.00000000 0.21240655 0.15397028
0.00000000 0.10481765 0.28064632
0.00000000 0.09692020 0.29505486
0.08716053 0.01416510 0.40650827
0.45459175 0.00000000 0.40330828
0.80246007 0.00000000 0.39056114
0.99788888 0.00410349 0.33232578
1.00000000 0.19680029 0.27431500
1.00000000 0.25467122 0.21796344
1.00000000 0.27028748 0.20292544
0.00000000 0.37085077 0.34910958
0.00000000 0.37283758 0.35102130
0.00000000 0.38770448 0.36596408
0.37976363 0.37976363 0.37976363
0.88190854 0.27051023 0.36217520
1.00000000 0.34251831 0.39637454
1.00000000 0.42311796 0.40579163
1.00000000 0.45361336 0.38882657
1.00000000 0.46126763 0.38457108
0.00000000 0.72887600 0.33772699
0.00000000 0.73030252 0.33405725
0.00000000 0.74146316 0.30034859
0.00000000 0.77487051 0.17762021
0.71048767 0.75075035 0.01350599
1.00000000 0.66203026 0.38567987
1.00000000 0.69101176 0.58501287
1.00000000 0.70150076 0.62898311
1.00000000 0.70476295 0.63867938
0.00000000 0.98061659 0.00000000
0.00000000 0.98229285 0.00000000
0.00000000 0.99550796 0.00000000
0.00000000 1.00000000 0.00000000
0.26871337 1.00000000 0.00000000
0.92384556 0.99303161 0.00000000
1.00000000 0.88987260 0.66972533
1.00000000 0.84918918 0.76308922
1.00000000 0.83302817 0.77613058
0.00000000 1.00000000 0.00000000
0.00000000 1.00000000 0.00000000
0.00000000 1.00000000 0.00000000
0.04250907 1.00000000 0.02584446
0.58843804 1.00000000 0.44599181
0.84653815 1.00000000 0.70335652
1.00000000 1.00000000 1.00000000
1.00000000 0.96318988 0.88640378
1.00000000 0.91023539 0.85835255
0.00000000 1.00000000 0.00000000
0.00000000 1.00000000 0.00000000
0.03214336 1.00000000 0.00000000
0.39004372 1.00000000 0.26831132
0.74415408 1.00000000 0.65169204
0.89237514 1.00000000 0.83228406
0.98396213 1.00000000 0.96179592
1.00000000 1.00000000 1.00000000
1.00000000 0.98515198 0.95327576
0.05714884 1.00000000 0.00000000
0.07794918 1.00000000 0.00000000
0.20627546 1.00000000 0.02815866
0.44635841 1.00000000 0.30365722
0.72656128 1.00000000 0.62281259
0.90252992 1.00000000 0.85374499
0.98065561 1.00000000 0.96508918
1.00000000 1.00000000 1.00000000
1.00000000 1.00000000 1.00000000
0.04630403 0.00000000 0.61870836
0.05851971 0.00000000 0.60961998
0.14614650 0.00000000 0.53895049
0.35982597 0.00000000 0.50452226
0.69953946 0.00000000 0.57347018
0.93420082 0.00000000 0.51742994
1.00000000 0.03691374 0.38286942
1.00000000 0.14218430 0.25396736
0.99535914 0.18982227 0.15816511
0.03370651 0.00000000 0.62672597
0.04637194 0.00000000 0.61874150
0.13966968 0.00000000 0.54863720
0.35739500 0.00000000 0.50669562
0.70064716 0.00000000 0.57439322
0.93581550 0.00000000 0.51738911
1.00000000 0.04069177 0.38282209
1.00000000 0.14497105 0.25476686
0.99518700 0.19221686 0.15973281
0.00000000 0.10140717 0.52519515
0.00000000 0.08509829 0.54476489
0.04628650 0.00000000 0.60719583
0.33839062 0.00000000 0.55199187
0.72391885 0.00000000 0.59476917
0.96036481 0.00000000 0.51783706
1.00000000 0.05873221 0.38096608
1.00000000 0.16011728 0.25875074
0.99892055 0.20477135 0.16775124
0.00000000 0.30297938 0.47160039
0.00000000 0.30132384 0.47622645
0.00000000 0.30044408 0.54399102
0.31114521 0.22808523 0.78925298
0.81905012 0.12556030 0.73118378
1.00000000 0.21985725 0.57694317
1.00000000 0.34680503 0.48220455
1.00000000 0.39163563 0.40559425
1.00000000 0.41141739 0.34634828
0.00000000 0.66769292 0.63016671
0.00000000 0.66901297 0.63140801
0.00000000 0.68013184 0.64185709
0.00000000 0.71261883 0.67593674
0.68263283 0.68263476 0.68263383
1.00000000 0.64485575 0.67629698
1.00000000 0.69062338 0.69412013
1.00000000 0.71258130 0.68558941
1.00000000 0.72149925 0.66962841
0.00000000 0.93643935 0.41537322
0.00000000 0.93733433 0.41459429
0.00000000 0.94448637 0.40770410
0.00000000 0.96930278 0.40107244
0.37363488 0.99949761 0.42713955
0.90817873 0.95977346 0.41211330
1.00000000 0.90762418 0.79869498
1.00000000 0.91445804 0.87255219
1.00000000 0.91615970 0.88595414
0.00000000 1.00000000 0.17799315
0.00000000 1.00000000 0.18282578
0.10204491 1.00000000 0.21926536
0.37967065 1.00000000 0.35335666
0.69153358 1.00000000 0.60330642
0.90698783 1.00000000 0.82655694
1.00000000 1.00000000 1.00000000
1.00000000 1.00000000 1.00000000
1.00000000 1.00000000 1.00000000
0.38883681 1.00000000 0.29669815
0.39445052 1.00000000 0.30161686
0.43745101 1.00000000 0.33995880
0.58051374 1.00000000 0.47904978
0.83138144 1.00000000 0.76785635
1.00000000 1.00000000 1.00000000
1.00000000 1.00000000 1.00000000
1.00000000 1.00000000 1.00000000
1.00000000 1.00000000 1.00000000
0.46891108 1.00000000 0.33615907
0.47360169 1.00000000 0.34109890
0.50996341 1.00000000 0.37971164
0.63532110 1.00000000 0.51913440
0.85491331 1.00000000 0.79308461
1.00000000 1.00000000 1.00000000
1.00000000 1.00000000 1.00000000
1.00000000 1.00000000 1.00000000
1.00000000 1.00000000 1.00000000
0.01292823 0.00000000 0.78637100
0.01952597 0.00000000 0.78317707
0.07405234 0.00000000 0.74042563
0.20914288 0.00000000 0.68198444
0.59923847 0.00000000 0.75652000
0.88196520 0.00000000 0.71301801
1.00000000 0.00000000 0.56670294
1.00000000 0.10020175 0.40032339
1.00000000 0.15347409 0.25222476
0.00633895 0.00000000 0.78668382
0.01315486 0.00000000 0.78614401
0.06844557 0.00000000 0.74578513
0.20462896 0.00000000 0.68334855
0.59858698 0.00000000 0.75764939
0.88254498 0.00000000 0.71350053
1.00000000 0.00000000 0.56677575
1.00000000 0.10225250 0.40054382
1.00000000 0.15496309 0.25279271
0.00000000 0.08217906 0.72713450
0.00000000 0.05509278 0.75140591
0.01472799 0.00000000 0.77281538
0.16699534 0.00000000 0.70400380
0.59613403 0.00000000 0.77650921
0.89135314 0.00000000 0.72086866
1.00000000 0.00000000 0.56743273
1.00000000 0.11631819 0.40199358
1.00000000 0.16580593 0.25698681
0.00000000 0.28039860 0.62409271
0.00000000 0.27772512 0.62802453
0.00000000 0.24882744 0.67065961
0.09522671 0.15869798 0.86610516
0.66721448 0.05338051 0.93560489
0.98857549 0.03931351 0.80740268
1.00000000 0.25913391 0.62226574
1.00000000 0.32430093 0.48888949
1.00000000 0.35221256 0.37838493
0.00000000 0.58863915 0.79432077
0.00000000 0.58975524 0.79757581
0.00000000 0.59855825 0.82599591
0.00000000 0.61815293 0.92980782
0.61486560 0.61475741 0.98645468
1.00000000 0.55914957 0.92010486
1.00000000 0.62827217 0.77765241
1.00000000 0.66222279 0.71511032
1.00000000 0.67747584 0.66511806
0.00000000 0.89207901 0.83729367
0.00000000 0.89316889 0.83830021
0.00000000 0.90195882 0.84646900
0.00000000 0.93189044 0.87583407
0.00000000 0.96061937 0.91616255
0.89436335 0.89436965 0.89436662
1.00000000 0.89047610 0.89816263
1.00000000 0.90778800 0.90630956
1.00000000 0.91401164 0.90285910
0.00000000 1.00000000 0.44079505
0.00000000 1.00000000 0.44202016
0.00000000 1.00000000 0.45489540
0.06925658 1.00000000 0.52652129
0.61398339 1.00000000 0.70014352
0.87676178 1.00000000 0.85895671
0.99417930 1.00000000 0.94572797
1.00000000 1.00000000 1.00000000
1.00000000 1.00000000 1.00000000
0.26160996 1.00000000 0.27458427
0.26986978 1.00000000 0.27948960
0.32994296 1.00000000 0.31751997
0.50898710 1.00000000 0.45534221
0.78258849 1.00000000 0.72626891
0.97350510 1.00000000 0.95991367
1.00000000 1.00000000 1.00000000
1.00000000 1.00000000 1.00000000
1.00000000 1.00000000 1.00000000
0.38046216 1.00000000 0.26599497
0.38620724 1.00000000 0.27154332
0.43014158 1.00000000 0.31436888
0.57745725 1.00000000 0.46615492
0.82317925 1.00000000 0.75628030
1.00000000 1.00000000 1.00000000
1.00000000 1.00000000 1.00000000
1.00000000 1.00000000 1.00000000
1.00000000 1.00000000 1.00000000
0.00000000 0.02883221 0.81668280
0.00000000 0.02428891 0.81811917
0.00000000 0.00017678 0.81728052
0.03472085 0.00000000 0.78413427
0.35211327 0.00000000 0.97497193
0.75432402 0.00000000 0.90869185
0.96125998 0.00000000 0.76934700
1.00000000 0.03148491 0.58063163
1.00000000 0.11677648 0.40547729
0.00000000 0.03584386 0.81472093
0.00000000 0.03061717 0.81682396
0.00000000 0.00372371 0.81833051
0.03337229 0.00000000 0.78635169
0.35046740 0.00000000 0.97554244
0.75430001 0.00000000 0.90927327
0.96166538 0.00000000 0.76968538
1.00000000 0.03297031 0.58077675
1.00000000 0.11811376 0.40575232
0.00000000 0.12597095 0.75782650
0.00000000 0.11782841 0.76564438
0.00000000 0.04242451 0.82054940
0.01784435 0.00000000 0.80212536
0.33671431 0.00000000 0.98510761
0.75559785 0.00000000 0.91761545
0.96629674 0.00000000 0.77352349
1.00000000 0.04477582 0.58194439
1.00000000 0.12814421 0.40788605
0.00000000 0.25006729 0.75919226
0.00000000 0.24746645 0.76172436
0.00000000 0.22286386 0.78547881
0.00000000 0.09646250 0.88714176
0.34991343 0.22505381 1.00000000
0.82239632 0.11022839 0.99504805
1.00000000 0.15302643 0.81404597
1.00000000 0.26809006 0.63006701
1.00000000 0.30638251 0.48467099
0.00000000 0.52176055 0.94408258
0.00000000 0.52269322 0.94705298
0.00000000 0.53006857 0.96899601
0.18181014 0.56605000 0.99255261
0.46792285 0.62815379 1.00000000
0.89683932 0.57764462 1.00000000
1.00000000 0.58861740 0.89920573
1.00000000 0.63095072 0.79301344
1.00000000 0.64825998 0.71646325
0.00000000 0.80158765 1.00000000
0.00000000 0.80236682 1.00000000
0.00000000 0.80847673 1.00000000
0.09925674 0.83175482 1.00000000
0.56137729 0.86325620 1.00000000
0.85897088 0.87153253 1.00000000
1.00000000 0.86030193 0.97993162
1.00000000 0.88523516 0.92970826
1.00000000 0.89462465 0.90908954
0.00000000 0.99093004 0.92847005
0.00000000 0.99169900 0.92921390
0.00000000 0.99774000 0.93512278
0.00000000 1.00000000 0.95509957
0.34769767 1.00000000 0.97552180
0.80969646 1.00000000 0.98688181
0.98887723 0.98888630 0.98888193
1.00000000 0.99708725 0.99747218
1.00000000 1.00000000 1.00000000
0.00000000 1.00000000 0.48053663
0.00000000 1.00000000 0.48311887
0.00000000 1.00000000 0.50332311
0.30221420 1.00000000 0.58632315
0.70475522 1.00000000 0.77653723
0.95147755 1.00000000 0.95632963
1.00000000 1.00000000 1.00000000
1.00000000 1.00000000 1.00000000
1.00000000 1.00000000 1.00000000
0.29301223 1.00000000 0.27340297
0.30018548 1.00000000 0.27838371
0.35342951 1.00000000 0.31702031
0.52217121 1.00000000 0.45808562
0.79164334 1.00000000 0.73731173
0.98347790 1.00000000 0.97612713
1.00000000 1.00000000 1.00000000
1.00000000 1.00000000 1.00000000
1.00000000 1.00000000 1.00000000
0.00000000 0.15943446 0.69609004
0.00000000 0.15792562 0.69627011
0.00000000 0.14573248 0.69662630
0.00000000 0.06868763 0.71029666
0.11217802 0.09020096 0.99406568
0.41512128 0.19907967 1.00000000
0.81803242 0.00000000 0.95748219
0.98821832 0.00000000 0.78480138
1.00000000 0.03537958 0.58620401
0.00000000 0.16120431 0.69764758
0.00000000 0.15970477 0.69783384
0.00000000 0.14751903 0.69803821
0.00000000 0.07413505 0.70906693
0.11081971 0.09010374 0.99380040
0.41463391 0.19960934 1.00000000
0.81815654 0.00000000 0.95774334
0.98852030 0.00000000 0.78505579
1.00000000 0.03682701 0.58636836
0.00000000 0.17510295 0.71247184
0.00000000 0.17355463 0.71234091
0.00000000 0.16208161 0.71150635
0.00000000 0.10004952 0.70501270
0.09868634 0.08426349 0.99521440
0.41064160 0.20224357 1.00000000
0.82027069 0.00000000 0.96207758
0.99165628 0.00000000 0.78766456
1.00000000 0.04782997 0.58774396
0.00000000 0.23771822 0.80973723
0.00000000 0.23631280 0.80943470
0.00000000 0.22395939 0.80647898
0.00000000 0.14959082 0.80681817
0.15332320 0.27802757 0.99942271
0.45504173 0.34514516 1.00000000
0.87260593 0.18307827 1.00000000
1.00000000 0.19056199 0.81260489
1.00000000 0.26058022 0.63316204
0.12206927 0.48157574 0.99950469
0.12656838 0.48309362 0.99945385
0.16000208 0.49493907 0.99980470
0.26613396 0.54195063 0.99928363
0.43950577 0.62649768 1.00000000
0.63762539 0.66549001 1.00000000
0.97026441 0.59225253 1.00000000
1.00000000 0.60645880 0.89319922
1.00000000 0.62781983 0.79653729
0.35896908 0.74092468 1.00000000
0.36135214 0.74181515 1.00000000
0.38056099 0.74895604 1.00000000
0.45912000 0.77870264 1.00000000
0.63873818 0.83937193 1.00000000
0.79831640 0.88367085 1.00000000
0.98397847 0.86582228 1.00000000
1.00000000 0.87402060 0.96730335
1.00000000 0.88431351 0.93474536
0.26900829 0.87944301 1.00000000
0.27314597 0.88006570 1.00000000
0.30610154 0.88502285 1.00000000
0.43301458 0.90489394 1.00000000
0.67569866 0.94476123 1.00000000
0.89041129 0.97129799 1.00000000
0.98177652 0.98436364 1.00000000
1.00000000 0.99226422 1.00000000
1.00000000 0.99703681 0.99957726
0.00000000 1.00000000 0.95625444
0.00000000 1.00000000 0.95681122
0.00000000 1.00000000 0.96080997
0.00000000 1.00000000 0.97104961
0.56916588 1.00000000 0.98397474
0.92240859 1.00000000 0.99681872
1.00000000 1.00000000 1.00000000
1.00000000 1.00000000 1.00000000
1.00000000 1.00000000 1.00000000
0.00000000 1.00000000 0.51739618
0.00000000 1.00000000 0.51968213
0.11738525 1.00000000 0.53862682
0.40362881 1.00000000 0.61947269
0.74384132 1.00000000 0.80456262
0.97302003 1.00000000 0.97732594
1.00000000 1.00000000 1.00000000
1.00000000 1.00000000 1.00000000
1.00000000 1.00000000 1.00000000
0.00000000 0.18954052 0.64988179
0.00000000 0.18897750 0.64838221
0.00000000 0.18453837 0.63560122
0.00000000 0.15297848 0.60592434
0.00000000 0.18046859 0.93012494
0.16707326 0.28193688 1.00000000
0.43797029 0.27082424 1.00000000
0.84940887 0.00000000 0.98106623
1.00000000 0.00000000 0.78989709
0.00000000 0.19047202 0.65299777
0.00000000 0.18991444 0.65146598
0.00000000 0.18542661 0.63851255
0.00000000 0.15488159 0.60728698
0.00000000 0.18098706 0.92859467
0.16685388 0.28214570 1.00000000
0.43790182 0.27128649 1.00000000
0.84969952 0.00000000 0.98144622
1.00000000 0.00000000 0.79017709
0.00000000 0.19859255 0.67826270
0.00000000 0.19784643 0.67665506
0.00000000 0.19322572 0.66345101
0.00000000 0.16319999 0.61820888
0.00000000 0.18153435 0.92124470
0.16448384 0.28290203 1.00000000
0.43752160 0.27379834 1.00000000
0.85285603 0.00000000 0.98601702
1.00000000 0.00000000 0.79267464
0.00000000 0.24568327 0.80339092
0.00000000 0.24489905 0.80175211
0.00000000 0.23776361 0.78822901
0.00000000 0.19050880 0.75305233
0.02249094 0.29936883 0.98280573
0.24956452 0.40114523 1.00000000
0.49287705 0.39246881 1.00000000
0.90108770 0.18279318 1.00000000
1.00000000 0.20175140 0.81027717
0.16503473 0.47102006 1.00000000
0.16826455 0.47270163 1.00000000
0.19139317 0.48553784 1.00000000
0.27285403 0.53528669 1.00000000
0.41653715 0.62739553 1.00000000
0.54098106 0.69064898 1.00000000
0.69606936 0.69053853 1.00000000
0.99063977 0.60034179 1.00000000
1.00000000 0.61255359 0.89072976
0.45907457 0.71725010 1.00000000
0.46077594 0.71824732 1.00000000
0.47452641 0.72626198 1.00000000
0.53307352 0.75934193 1.00000000
0.67038822 0.82828070 1.00000000
0.79017961 0.88374764 1.00000000
0.87468675 0.89907576 1.00000000
1.00000000 0.87186745 1.00000000
1.00000000 0.87880112 0.96557106
0.53059281 0.82866960 1.00000000
0.53257680 0.82946503 1.00000000
0.54862032 0.83587212 1.00000000
0.61531570 0.86238529 1.00000000
0.76494009 0.91851193 1.00000000
0.90635333 0.96467464 1.00000000
0.97200478 0.98580382 1.00000000
1.00000000 0.99125588 1.00000000
1.00000000 0.99532372 1.00000000
0.36646708 0.90693223 1.00000000
0.37015213 0.90749349 1.00000000
0.40015430 0.91192665 1.00000000
0.51937672 0.92952555 1.00000000
0.75386206 0.96496181 1.00000000
0.94811537 0.99288486 1.00000000
1.00000000 1.00000000 1.00000000
1.00000000 1.00000000 1.00000000
1.00000000 1.00000000 1.00000000
0.00000000 1.00000000 0.96304877
0.00000000 1.00000000 0.96364172
0.00000000 1.00000000 0.96760267
0.00000000 1.00000000 0.97507288
0.62562146 1.00000000 0.98690757
0.95842628 1.00000000 1.00000000
1.00000000 1.00000000 1.00000000
1.00000000 1.00000000 1.00000000
1.00000000 1.00000000 1.00000000
