canon/clog2/clog2_rec709.cube
# Gamut : Cinema Gamut to BT.709
# Gamma : Canon Log 2 to Canon 709
# Range : Full in / Full out
# Version : 1.0
# Creation Date: 2025/6/24
# Copyright(c) 2025 Canon Inc. All Rights Reserved.
LUT_3D_SIZE 33
# LUT_3D_INPUT_RANGE 0.0 1.0
0.00000000 0.00000000 0.00000000
0.00000000 0.00000000 0.00000000
0.01098610 0.00000000 0.00000000
0.00956903 0.00952086 0.00952488
0.03929979 0.00627938 0.00906798
0.07773122 0.00208556 0.00843347
0.12134615 0.00000000 0.00754303
0.16629262 0.00000000 0.00628097
0.21656617 0.00000000 0.00587797
0.27693387 0.00000000 0.00578002
0.34353061 0.00000000 0.00851508
0.41541643 0.00000000 0.01563050
0.49175667 0.00000000 0.02759150
0.57148604 0.00000000 0.04308691
0.65102975 0.00000000 0.06096280
0.72786492 0.00000000 0.07838708
0.79967757 0.00000000 0.09208271
0.86393006 0.00000000 0.10084710
0.91880061 0.00000000 0.10569736
0.96297079 0.00000000 0.10847533
0.99321178 0.00000000 0.11386732
1.00000000 0.03593405 0.12805300
1.00000000 0.09282384 0.14213352
1.00000000 0.13446731 0.15339575
1.00000000 0.16324053 0.16165798
1.00000000 0.18433734 0.16759823
1.00000000 0.19897297 0.17084346
1.00000000 0.20948526 0.17224401
1.00000000 0.21718278 0.17233362
1.00000000 0.22288669 0.17147491
1.00000000 0.22714911 0.16992655
1.00000000 0.23035517 0.16787689
1.00000000 0.23277054 0.16545713
0.00000000 0.00000000 0.00000000
0.00000000 0.00000000 0.00000000
0.00341033 0.00000000 0.00000000
0.00956903 0.00952086 0.00952488
0.03929979 0.00627938 0.00906798
0.07773122 0.00208556 0.00843347
0.12134615 0.00000000 0.00754303
0.16629262 0.00000000 0.00628097
0.21656617 0.00000000 0.00587797
0.27693387 0.00000000 0.00578002
0.34353061 0.00000000 0.00851508
0.41541643 0.00000000 0.01563050
0.49175667 0.00000000 0.02759150
0.57148604 0.00000000 0.04308691
0.65102975 0.00000000 0.06096280
0.72786492 0.00000000 0.07838708
0.79967757 0.00000000 0.09208271
0.86393006 0.00000000 0.10084710
0.91880061 0.00000000 0.10569736
0.96297079 0.00000000 0.10847533
0.99321178 0.00000000 0.11386732
1.00000000 0.03593405 0.12805300
1.00000000 0.09282384 0.14213352
1.00000000 0.13446731 0.15339575
1.00000000 0.16324053 0.16165798
1.00000000 0.18433734 0.16759823
1.00000000 0.19897297 0.17084346
1.00000000 0.20948526 0.17224401
1.00000000 0.21718278 0.17233362
1.00000000 0.22288669 0.17147491
1.00000000 0.22714911 0.16992655
1.00000000 0.23035517 0.16787689
1.00000000 0.23277054 0.16545713
0.00000000 0.00526863 0.00000000
0.00000000 0.00628497 0.00000000
0.00000000 0.00346829 0.00000000
0.00956903 0.00952086 0.00952488
0.03929979 0.00627938 0.00906798
0.07773122 0.00208556 0.00843347
0.12134615 0.00000000 0.00754303
0.16629262 0.00000000 0.00628097
0.21656617 0.00000000 0.00587797
0.27693387 0.00000000 0.00578002
0.34353061 0.00000000 0.00851508
0.41541643 0.00000000 0.01563050
0.49175667 0.00000000 0.02759150
0.57148604 0.00000000 0.04308691
0.65102975 0.00000000 0.06096280
0.72786492 0.00000000 0.07838708
0.79967757 0.00000000 0.09208271
0.86393006 0.00000000 0.10084710
0.91880061 0.00000000 0.10569736
0.96297079 0.00000000 0.10847533
0.99321178 0.00000000 0.11386732
1.00000000 0.03593405 0.12805300
1.00000000 0.09282384 0.14213352
1.00000000 0.13446731 0.15339575
1.00000000 0.16324053 0.16165798
1.00000000 0.18433734 0.16759823
1.00000000 0.19897297 0.17084346
1.00000000 0.20948526 0.17224401
1.00000000 0.21718278 0.17233362
1.00000000 0.22288669 0.17147491
1.00000000 0.22714911 0.16992655
1.00000000 0.23035517 0.16787689
1.00000000 0.23277054 0.16545713
0.00945440 0.00956308 0.00946984
0.00945440 0.00956308 0.00946984
0.00945440 0.00956308 0.00946984
0.00970492 0.00972649 0.00951302
0.03922507 0.00662907 0.00903547
0.07753864 0.00252487 0.00838451
0.12107727 0.00000000 0.00749579
0.16600768 0.00000000 0.00624177
0.21629219 0.00000000 0.00582941
0.27673369 0.00000000 0.00569156
0.34346473 0.00000000 0.00834876
0.41547501 0.00000000 0.01538024
0.49190965 0.00000000 0.02726563
0.57168719 0.00000000 0.04271524
0.65125326 0.00000000 0.06057315
0.72809481 0.00000000 0.07800716
0.79990425 0.00000000 0.09174765
0.86414618 0.00000000 0.10057959
0.91899843 0.00000000 0.10549716
0.96313710 0.00000000 0.10835019
0.99329542 0.00000000 0.11386556
1.00000000 0.03633060 0.12812707
1.00000000 0.09323541 0.14224774
1.00000000 0.13480079 0.15353060
1.00000000 0.16352111 0.16179938
1.00000000 0.18460386 0.16775501
1.00000000 0.19922518 0.17100813
1.00000000 0.20972648 0.17241390
1.00000000 0.21741714 0.17250841
1.00000000 0.22311666 0.17165424
1.00000000 0.22737639 0.17011019
1.00000000 0.23058072 0.16806451
1.00000000 0.23299492 0.16564843
0.00000000 0.03211637 0.00294041
0.00000000 0.03211637 0.00294041
0.00000000 0.03211637 0.00294041
0.00000000 0.03239723 0.00290163
0.02673528 0.02929793 0.00232559
0.06575179 0.02494801 0.00192027
0.11170763 0.01952711 0.00175107
0.15668022 0.01335009 0.00188920
0.21049245 0.00423332 0.00043777
0.27350364 0.00000000 0.00000000
0.34491793 0.00000000 0.00000000
0.42129284 0.00000000 0.00280500
0.50080115 0.00000000 0.01211493
0.58052607 0.00000000 0.02735055
0.66018748 0.00000000 0.04530775
0.73723316 0.00000000 0.06320247
0.80881999 0.00000000 0.07869653
0.87257858 0.00000000 0.09015892
0.92662033 0.00000000 0.09772992
0.96937850 0.00000000 0.10358371
0.99619522 0.00000000 0.11392724
1.00000000 0.05076374 0.13081637
1.00000000 0.10745343 0.14634445
1.00000000 0.14658956 0.15841255
1.00000000 0.17390775 0.16714287
1.00000000 0.19414825 0.17344347
1.00000000 0.20826380 0.17697193
1.00000000 0.21842780 0.17859602
1.00000000 0.22588914 0.17887333
1.00000000 0.23143080 0.17817782
1.00000000 0.23558024 0.17677459
1.00000000 0.23870692 0.17485659
1.00000000 0.24105757 0.17255215
0.00000000 0.06048947 0.00000000
0.00000000 0.06048947 0.00000000
0.00000000 0.06048947 0.00000000
0.00000000 0.06075287 0.00000000
0.01054820 0.05840022 0.00000000
0.04875287 0.05442997 0.00000000
0.09832989 0.04861470 0.00000000
0.14802957 0.04157414 0.00000000
0.20270113 0.03303475 0.00000000
0.26694137 0.02074765 0.00000000
0.34005681 0.00419969 0.00000000
0.42071237 0.00000000 0.00000000
0.50524867 0.00000000 0.00000000
0.58871096 0.00000000 0.00864690
0.67037585 0.00000000 0.02546156
0.74812929 0.00000000 0.04379838
0.81968049 0.00000000 0.06099288
0.88294031 0.00000000 0.07535135
0.93598487 0.00000000 0.08685996
0.97688165 0.00000000 0.09718441
0.99944936 0.00781395 0.11407133
1.00000000 0.06999798 0.13419282
1.00000000 0.12433577 0.15141657
1.00000000 0.16083260 0.16445133
1.00000000 0.18656264 0.17376116
1.00000000 0.20570257 0.18041336
1.00000000 0.21933196 0.18436062
1.00000000 0.22914120 0.18629135
1.00000000 0.23633556 0.18680186
1.00000000 0.24166918 0.18628778
1.00000000 0.24566985 0.18504376
1.00000000 0.24868997 0.18326955
1.00000000 0.25098659 0.18111791
0.00000000 0.08602002 0.00000000
0.00000000 0.08602002 0.00000000
0.00000000 0.08602002 0.00000000
0.00000000 0.08627553 0.00000000
0.00000000 0.08779893 0.00000000
0.02803357 0.08667463 0.00000000
0.07416006 0.08323355 0.00000000
0.12862094 0.07754409 0.00000000
0.18502388 0.07107357 0.00000000
0.24961708 0.06193628 0.00000000
0.32476045 0.04757471 0.00000000
0.40932678 0.02676780 0.00000000
0.50057951 0.00003808 0.00000000
0.59280721 0.00000000 0.00000000
0.67979254 0.00000000 0.00140153
0.76004412 0.00000000 0.01921863
0.83250184 0.00000000 0.03782670
0.89552153 0.00000000 0.05530526
0.94732746 0.00000000 0.07142140
0.98555978 0.00000000 0.08854859
1.00000000 0.02827810 0.11408462
1.00000000 0.09473478 0.13828743
1.00000000 0.14412670 0.15759698
1.00000000 0.17784899 0.17184003
1.00000000 0.20183205 0.18188732
1.00000000 0.21942093 0.18877723
1.00000000 0.23279733 0.19346651
1.00000000 0.24221684 0.19579921
1.00000000 0.24909970 0.19660153
1.00000000 0.25421499 0.19633348
1.00000000 0.25805545 0.19529786
1.00000000 0.26095834 0.19370630
1.00000000 0.26318659 0.19173505
0.00000000 0.11103304 0.00000000
0.00000000 0.11103304 0.00000000
0.00000000 0.11103304 0.00000000
0.00000000 0.11128751 0.00000000
0.00000000 0.11500073 0.00000000
0.01014636 0.11691270 0.00000000
0.04969586 0.11692020 0.00000000
0.10397869 0.11511953 0.00000000
0.16264754 0.11272363 0.00000000
0.22758272 0.10905827 0.00000000
0.30363808 0.10099153 0.00000000
0.39094112 0.08472946 0.00000000
0.48657779 0.05787835 0.00000000
0.58623196 0.02271425 0.00000000
0.68377300 0.00000000 0.00000000
0.77033840 0.00000000 0.00000000
0.84587994 0.00000000 0.00999716
0.90968255 0.00000000 0.03049757
0.96010019 0.00000000 0.05230059
0.99331591 0.00000000 0.07985449
1.00000000 0.05878409 0.11502545
1.00000000 0.12397131 0.14384582
1.00000000 0.16798053 0.16561471
1.00000000 0.19874348 0.18135078
1.00000000 0.22082914 0.19235386
1.00000000 0.23710404 0.19988403
1.00000000 0.24963783 0.20510723
1.00000000 0.25859310 0.20793846
1.00000000 0.26515117 0.20914003
1.00000000 0.27001679 0.20918586
1.00000000 0.27365590 0.20839877
1.00000000 0.27640625 0.20702013
1.00000000 0.27854404 0.20525995
0.00000000 0.14293584 0.00000000
0.00000000 0.14293584 0.00000000
0.00000000 0.14293584 0.00000000
0.00000000 0.14314432 0.00000000
0.00000000 0.14778259 0.00000000
0.00000000 0.15134711 0.00000000
0.02775657 0.15345145 0.00000000
0.07885717 0.15412242 0.00000000
0.14125326 0.15458432 0.00000000
0.20703197 0.15481836 0.00000000
0.28161988 0.15335444 0.00000000
0.36859337 0.14670118 0.00000000
0.46647936 0.13119474 0.00000000
0.57059135 0.10354471 0.00000000
0.67510112 0.06073555 0.00000000
0.77282950 0.01509175 0.00000000
0.85649172 0.00000000 0.00000000
0.92372651 0.00000000 0.00526867
0.97301916 0.00000000 0.03417824
0.99877611 0.03579570 0.07682364
1.00000000 0.10829046 0.12104159
1.00000000 0.16211700 0.15429446
1.00000000 0.19997852 0.17860385
1.00000000 0.22719479 0.19596301
1.00000000 0.24701444 0.20807402
1.00000000 0.26168722 0.21635203
1.00000000 0.27276302 0.22188224
1.00000000 0.28136623 0.22551222
1.00000000 0.28756089 0.22724644
1.00000000 0.29211321 0.22768335
1.00000000 0.29551085 0.22721620
1.00000000 0.29807783 0.22611168
1.00000000 0.30010394 0.22461837
0.00000000 0.18221317 0.00000000
0.00000000 0.18221317 0.00000000
0.00000000 0.18221317 0.00000000
0.00000000 0.18239116 0.00000000
0.00000000 0.18754299 0.00000000
0.00000000 0.19220689 0.00000000
0.00487140 0.19574483 0.00000000
0.05145124 0.19803703 0.00000000
0.11755686 0.20040458 0.00000000
0.18711828 0.20296136 0.00000000
0.26218040 0.20507415 0.00000000
0.34708246 0.20483959 0.00000000
0.44357339 0.19889843 0.00000000
0.54856192 0.18428558 0.00000000
0.65627611 0.15925170 0.00000000
0.76044753 0.12290622 0.00000000
0.85485097 0.07622692 0.00000000
0.93281779 0.03793491 0.00000000
0.98120296 0.05013142 0.02363935
1.00000000 0.11070727 0.08179330
1.00000000 0.16682328 0.13395611
1.00000000 0.20941331 0.17141059
1.00000000 0.24109992 0.19834660
1.00000000 0.26454038 0.21750018
1.00000000 0.28187606 0.23088842
1.00000000 0.29482149 0.24009910
1.00000000 0.30459022 0.24627804
1.00000000 0.31212725 0.25032686
1.00000000 0.31806891 0.25286817
1.00000000 0.32226003 0.25378912
1.00000000 0.32533154 0.25367349
1.00000000 0.32764207 0.25286490
1.00000000 0.32951492 0.25167387
0.00000000 0.22993517 0.00000000
0.00000000 0.22993517 0.00000000
0.00000000 0.22993517 0.00000000
0.00000000 0.23009070 0.00000000
0.00000000 0.23506536 0.00000000
0.00000000 0.24028839 0.00000000
0.00000000 0.24499517 0.00000000
0.02132654 0.24837509 0.00000000
0.08739175 0.25202768 0.00000000
0.16360460 0.25624322 0.00000000
0.24193520 0.26067862 0.00000000
0.32674860 0.26419658 0.00000000
0.42087717 0.26471830 0.00000000
0.52450175 0.25908347 0.00000000
0.63368460 0.24471554 0.00000000
0.74216831 0.22076828 0.00000000
0.84315061 0.18879231 0.00000000
0.92920388 0.15590930 0.00000000
0.98334994 0.15498381 0.02480013
1.00000000 0.19127479 0.09596201
1.00000000 0.23100074 0.15429888
1.00000000 0.26429880 0.19553658
1.00000000 0.29039342 0.22526994
1.00000000 0.31017756 0.24644685
1.00000000 0.32506577 0.26135105
1.00000000 0.33629586 0.27170727
1.00000000 0.34484352 0.27878410
1.00000000 0.35152492 0.28358700
1.00000000 0.35695675 0.28686851
1.00000000 0.36069662 0.28830039
1.00000000 0.36333457 0.28851398
1.00000000 0.36530545 0.28798450
1.00000000 0.36699093 0.28711497
0.00000000 0.28599345 0.00806441
0.00000000 0.28599345 0.00806441
0.00000000 0.28599345 0.00806441
0.00000000 0.28612642 0.00783640
0.00000000 0.29058918 0.00000000
0.00000000 0.29567842 0.00000000
0.00000000 0.30082921 0.00000000
0.00000000 0.30522701 0.00000000
0.05252815 0.30966697 0.00000000
0.13609062 0.31508750 0.00000000
0.21867043 0.32134976 0.00000000
0.30534811 0.32762542 0.00000000
0.39920184 0.33196122 0.00000000
0.50171583 0.33200727 0.00000000
0.61127362 0.32483221 0.00000000
0.72283283 0.30859251 0.00000000
0.83007713 0.28339074 0.00000000
0.92377877 0.25496644 0.00000000
0.98532025 0.24648596 0.02787085
1.00000000 0.26961910 0.11379957
1.00000000 0.29912032 0.17980367
1.00000000 0.32542910 0.22617124
1.00000000 0.34654897 0.25901700
1.00000000 0.36283085 0.28237029
1.00000000 0.37529669 0.29897437
1.00000000 0.38491427 0.31073195
1.00000000 0.39239070 0.31899776
1.00000000 0.39853525 0.32500969
1.00000000 0.40336653 0.32906096
1.00000000 0.40680269 0.33124099
1.00000000 0.40872357 0.33152871
1.00000000 0.41023776 0.33117318
1.00000000 0.41160641 0.33052563
0.00000000 0.34923175 0.01940318
0.00000000 0.34923175 0.01940318
0.00000000 0.34923175 0.01940318
0.00000000 0.34934385 0.01914763
0.00000000 0.35321140 0.00853503
0.00000000 0.35776624 0.00000000
0.00000000 0.36286862 0.00000000
0.00000000 0.36781893 0.00000000
0.01974152 0.37289043 0.00000000
0.10446075 0.37905604 0.00000000
0.19243876 0.38661227 0.00000000
0.28115928 0.39493207 0.00000000
0.37593022 0.40249649 0.00000000
0.47816916 0.40642211 0.00000000
0.58807332 0.40428279 0.00000000
0.70304750 0.39322878 0.00000000
0.81678759 0.37230259 0.00000000
0.91900759 0.34567769 0.00000000
0.99035006 0.33095830 0.02163886
1.00000000 0.34523914 0.12679721
1.00000000 0.36771900 0.20429208
1.00000000 0.38896276 0.25829267
1.00000000 0.40639733 0.29626500
1.00000000 0.42003158 0.32299341
1.00000000 0.43045911 0.34187784
1.00000000 0.43840794 0.35521191
1.00000000 0.44472375 0.36476444
1.00000000 0.45055416 0.37243088
1.00000000 0.45492261 0.37750397
1.00000000 0.45790472 0.38033830
1.00000000 0.45962926 0.38126117
1.00000000 0.46010088 0.38039912
1.00000000 0.46113412 0.37995752
0.00000000 0.41735018 0.03165566
0.00000000 0.41735018 0.03165566
0.00000000 0.41735018 0.03165566
0.00000000 0.41744482 0.03138815
0.00000000 0.42076843 0.02056576
0.00000000 0.42476028 0.00695891
0.00000000 0.42939331 0.00000000
0.00000000 0.43450162 0.00000000
0.00000000 0.44011109 0.00000000
0.06671267 0.44683822 0.00000000
0.16250353 0.45514461 0.00000000
0.25354162 0.46484848 0.00000000
0.34864077 0.47477865 0.00000000
0.45118454 0.48269782 0.00000000
0.56150635 0.48459551 0.00000000
0.67905584 0.47800577 0.00000000
0.79887072 0.46089546 0.00000000
0.91101757 0.43528108 0.00000000
0.99642982 0.41384254 0.00000000
1.00000000 0.41973542 0.12634909
1.00000000 0.43587457 0.22209599
1.00000000 0.45281161 0.28708081
1.00000000 0.46710026 0.33232185
1.00000000 0.47835323 0.36392541
1.00000000 0.48700882 0.38600565
1.00000000 0.49359123 0.40151966
1.00000000 0.49866671 0.41250800
1.00000000 0.50276733 0.42036537
1.00000000 0.50594946 0.42572436
1.00000000 0.50828878 0.42907106
1.00000000 0.50997158 0.43091117
1.00000000 0.51113202 0.43160546
1.00000000 0.51224277 0.43188459
0.00000000 0.48724479 0.04267545
0.00000000 0.48724479 0.04267545
0.00000000 0.48724479 0.04267545
0.00000000 0.48732569 0.04241097
0.00000000 0.49020176 0.03186561
0.00000000 0.49370638 0.01858261
0.00000000 0.49788421 0.00175787
0.00000000 0.50279045 0.00000000
0.00000000 0.50890012 0.00000000
0.02959372 0.51578948 0.00000000
0.12698249 0.52470085 0.00000000
0.22081015 0.53554217 0.00000000
0.31566662 0.54726560 0.00000000
0.41730916 0.55812861 0.00000000
0.52817605 0.56496682 0.00000000
0.64678403 0.56285992 0.00000000
0.77103207 0.55012402 0.00000000
0.89264609 0.52663395 0.00000000
0.99492137 0.49993733 0.00000000
1.00000000 0.49581246 0.10427552
1.00000000 0.50447370 0.22818507
1.00000000 0.51646820 0.30870447
1.00000000 0.52748143 0.36380636
1.00000000 0.53629425 0.40193082
1.00000000 0.54305750 0.42837379
1.00000000 0.54820943 0.44673097
1.00000000 0.55213256 0.45958914
1.00000000 0.55515566 0.46864265
1.00000000 0.55750559 0.47487861
1.00000000 0.55931903 0.47902652
1.00000000 0.56068281 0.48158649
1.00000000 0.56175963 0.48304969
1.00000000 0.56263638 0.48372998
0.00000000 0.55592744 0.04831004
0.00000000 0.55592744 0.04831004
0.00000000 0.55592744 0.04831004
0.00000000 0.55599857 0.04805681
0.00000000 0.55854973 0.03804246
0.00000000 0.56169708 0.02537831
0.00000000 0.56552633 0.00912842
0.00000000 0.57018559 0.00000000
0.00000000 0.57650740 0.00000000
0.00000000 0.58396543 0.00000000
0.07497663 0.59323001 0.00000000
0.17689756 0.60481180 0.00000000
0.27316516 0.61800496 0.00000000
0.37402850 0.63108466 0.00000000
0.48369980 0.64148862 0.00000000
0.60347937 0.64554115 0.00000000
0.72980243 0.63788793 0.00000000
0.85835099 0.61848217 0.00000000
0.97469584 0.59108110 0.00000000
1.00000000 0.57509225 0.04749272
1.00000000 0.57463148 0.21762258
1.00000000 0.58045836 0.31996037
1.00000000 0.58736550 0.38863582
1.00000000 0.59332159 0.43527060
1.00000000 0.59784439 0.46718230
1.00000000 0.60120980 0.48914046
1.00000000 0.60375965 0.50429923
1.00000000 0.60570529 0.51486455
1.00000000 0.60719157 0.52222908
1.00000000 0.60837626 0.52726198
1.00000000 0.60933388 0.53059745
1.00000000 0.61012095 0.53269202
1.00000000 0.61074238 0.53382432
0.00000000 0.62134370 0.04040660
0.00000000 0.62134370 0.04040660
0.00000000 0.62134370 0.04040660
0.00000000 0.62140790 0.04017060
0.00000000 0.62371973 0.03092112
0.00000000 0.62659797 0.01918912
0.00000000 0.63014977 0.00400339
0.00000000 0.63457549 0.00000000
0.00000000 0.64076752 0.00000000
0.00000000 0.64883529 0.00000000
0.00430458 0.65831688 0.00000000
0.11118797 0.67052416 0.00000000
0.21566473 0.68469635 0.00000000
0.31816647 0.69952438 0.00000000
0.42692302 0.71270088 0.00000000
0.54542328 0.72111149 0.00000000
0.67394387 0.72100048 0.00000000
0.80639630 0.70704364 0.00000000
0.93464800 0.68195449 0.00000000
1.00000000 0.65639595 0.00000000
1.00000000 0.64632532 0.18031130
1.00000000 0.64482026 0.31611011
1.00000000 0.64656720 0.40368895
1.00000000 0.64884895 0.46199368
1.00000000 0.65069294 0.50099724
1.00000000 0.65189176 0.52737217
1.00000000 0.65268362 0.54538013
1.00000000 0.65327903 0.55773662
1.00000000 0.65373917 0.56629094
1.00000000 0.65410638 0.57222957
1.00000000 0.65446272 0.57628061
1.00000000 0.65480343 0.57894411
1.00000000 0.65508716 0.58052385
0.00000000 0.68118675 0.01838243
0.00000000 0.68118675 0.01838243
0.00000000 0.68118675 0.01838243
0.00000000 0.68124575 0.01816942
0.00000000 0.68337323 0.00988348
0.00000000 0.68603997 0.00000000
0.00000000 0.68936302 0.00000000
0.00000000 0.69357137 0.00000000
0.00000000 0.69958463 0.00000000
0.00000000 0.70790463 0.00000000
0.00000000 0.71776613 0.00000000
0.00934898 0.73026148 0.00000000
0.13331601 0.74525500 0.00000000
0.24475908 0.76167391 0.00000000
0.35576953 0.77710700 0.00000000
0.47351798 0.78896216 0.00000000
0.60090629 0.79399950 0.00000000
0.73717797 0.78882798 0.00000000
0.87319220 0.76863588 0.00000000
0.99539620 0.73969358 0.00000000
1.00000000 0.71915633 0.08927817
1.00000000 0.70932454 0.28901681
1.00000000 0.70487581 0.40430135
1.00000000 0.70263125 0.47910923
1.00000000 0.70106492 0.52796849
1.00000000 0.69966650 0.56006014
1.00000000 0.69829902 0.58146799
1.00000000 0.69711343 0.59594071
1.00000000 0.69622138 0.60581735
1.00000000 0.69556863 0.61262466
1.00000000 0.69510385 0.61733530
1.00000000 0.69482247 0.62050596
1.00000000 0.69463777 0.62248520
0.00000000 0.73393780 0.00000000
0.00000000 0.73393780 0.00000000
0.00000000 0.73393780 0.00000000
0.00000000 0.73399280 0.00000000
0.00000000 0.73597606 0.00000000
0.00000000 0.73847478 0.00000000
0.00000000 0.74160964 0.00000000
0.00000000 0.74562256 0.00000000
0.00000000 0.75143704 0.00000000
0.00000000 0.75966165 0.00000000
0.00000000 0.77001354 0.00000000
0.00000000 0.78275317 0.00000000
0.00108967 0.79851137 0.00000000
0.14318193 0.81596611 0.00000000
0.26608965 0.83342690 0.00000000
0.38682386 0.84827632 0.00000000
0.51386297 0.85750165 0.00000000
0.64947208 0.85814846 0.00000000
0.79173124 0.84761605 0.00000000
0.92764218 0.82203106 0.00000000
1.00000000 0.79262869 0.00000000
1.00000000 0.77370714 0.22281558
1.00000000 0.76226569 0.38310923
1.00000000 0.75472681 0.48248234
1.00000000 0.74909309 0.54565528
1.00000000 0.74444406 0.58582237
1.00000000 0.74050095 0.61163203
1.00000000 0.73714161 0.62859254
1.00000000 0.73444544 0.63996296
1.00000000 0.73241577 0.64766618
1.00000000 0.73090946 0.65294159
1.00000000 0.72978934 0.65654588
1.00000000 0.72896846 0.65885968
0.00000000 0.77896477 0.00000000
0.00000000 0.77896477 0.00000000
0.00000000 0.77896477 0.00000000
0.00000000 0.77901665 0.00000000
0.00000000 0.78088474 0.00000000
0.00000000 0.78324789 0.00000000
0.00000000 0.78622580 0.00000000
0.00000000 0.79006632 0.00000000
0.00000000 0.79568744 0.00000000
0.00000000 0.80376597 0.00000000
0.00000000 0.81446801 0.00000000
0.00000000 0.82739989 0.00000000
0.00000000 0.84369276 0.00000000
0.00000000 0.86207418 0.00000000
0.14405916 0.88120449 0.00000000
0.28156175 0.89851171 0.00000000
0.41321559 0.91127786 0.00000000
0.54904227 0.91682230 0.00000000
0.69135770 0.91255558 0.00000000
0.83703762 0.89695910 0.00000000
0.96885572 0.86719496 0.00000000
1.00000000 0.83853353 0.06558687
1.00000000 0.81900138 0.32833470
1.00000000 0.80550016 0.46602759
1.00000000 0.79523190 0.55087983
1.00000000 0.78684470 0.60308340
1.00000000 0.77976566 0.63525560
1.00000000 0.77384553 0.65544074
1.00000000 0.76895542 0.66850896
1.00000000 0.76509224 0.67717415
1.00000000 0.76218216 0.68299131
1.00000000 0.76000160 0.68691676
1.00000000 0.75832805 0.68948213
0.00000000 0.81636460 0.00000000
0.00000000 0.81636460 0.00000000
0.00000000 0.81636460 0.00000000
0.00000000 0.81641401 0.00000000
0.00000000 0.81818969 0.00000000
0.00000000 0.82044368 0.00000000
0.00000000 0.82329145 0.00000000
0.00000000 0.82698017 0.00000000
0.00000000 0.83241919 0.00000000
0.00000000 0.84032087 0.00000000
0.00000000 0.85116405 0.00000000
0.00000000 0.86430001 0.00000000
0.00000000 0.88083638 0.00000000
0.00000000 0.90007512 0.00000000
0.00000000 0.92061892 0.00000000
0.14246953 0.93973702 0.00000000
0.29688415 0.95541059 0.00000000
0.43938150 0.96477616 0.00000000
0.58219723 0.96582415 0.00000000
0.72787358 0.95684660 0.00000000
0.87319612 0.93715263 0.00000000
0.99781189 0.90442315 0.00000000
1.00000000 0.87605944 0.21552715
1.00000000 0.85557844 0.42116181
1.00000000 0.84013615 0.53932740
1.00000000 0.82760171 0.60982704
1.00000000 0.81703772 0.65162415
1.00000000 0.80806686 0.67652433
1.00000000 0.80062128 0.69176760
1.00000000 0.79455264 0.70148329
1.00000000 0.78978579 0.70783356
1.00000000 0.78617979 0.71201962
1.00000000 0.78343035 0.71471227
0.00000000 0.84673507 0.00000000
0.00000000 0.84673507 0.00000000
0.00000000 0.84673507 0.00000000
0.00000000 0.84678252 0.00000000
0.00000000 0.84848417 0.00000000
0.00000000 0.85064960 0.00000000
0.00000000 0.85338892 0.00000000
0.00000000 0.85694373 0.00000000
0.00000000 0.86220782 0.00000000
0.00000000 0.86991152 0.00000000
0.00000000 0.88068976 0.00000000
0.00000000 0.89397324 0.00000000
0.00000000 0.91083546 0.00000000
0.00000000 0.93056364 0.00000000
0.00000000 0.95197722 0.00000000
0.00000000 0.97257611 0.00000000
0.15928074 0.98991355 0.00000000
0.32973063 1.00000000 0.00000000
0.47879952 1.00000000 0.00000000
0.62115881 1.00000000 0.00000000
0.76209154 0.99041160 0.00000000
0.90047125 0.96867830 0.00000000
1.00000000 0.93492053 0.00000000
1.00000000 0.90631351 0.33947368
1.00000000 0.88458405 0.50668788
1.00000000 0.86742528 0.60354519
1.00000000 0.85308454 0.65956344
